!!!!SEGMENT: pl-cz--iii-111--001-006_dankowski-adalbert--vesperae-d-magnificat.krn
!!!cenid: 18xx:795
!!!COM: Dankowski, Adalbert
!!!COM-rismID: pe30000793
!!!CDT: ~1760-~1836
!!!CNT: Polish
!!!OPR: Vesperae D
!!!OTL: Magnificat
!!!OMV: 006
!!!PDT:
!!!AGN: Sacred; Vespers
!!!SMS-siglum: PL-CZ
!!!SMS-shelfmark: III-111
!!!SMS-shelfwork: 001-006 M
!!!SMS-variant:
!!!SMS-altvar:
!!!NIFC-rismSourceID: 300033580
!!!NIFC-rismChildID: 300033580
!!!NIFC-islandoraID: pl-cz:9975
!!!URL-pdf-islandora: https://repozytorium.nifc.pl/islandora/object/pl-cz%3A9975/datastream/PDF/view
!!!URL-scan: https://polish.musicsources.pl/pl/lokalizacje/galeria/rekopisy/970 @EN{Scan on Polish Music Sources Website} @PL{Skany w portalu Dziedzictwo Muzyki Polskiej w otwartym dostępie}
!!!IIIF:
!!!ONB-nifc: UWAGA: części Vesperae: Dixit Dominus, Laudate pueri, Laetatus sum, Nisi Dominus,
!!!AIN: 1 alto 1 bass 2 cor 1 organ 1 soprn 1 tenor 2 violn
!!!key: D
**kern	**fba	**dynam	**kern	**dynam	**kern	**dynam	**kern	**text	**dynam	**kern	**text	**dynam	**kern	**text	**dynam	**kern	**text	**dynam	**kern	**dynam	**kern	**dynam
*part9	*part9	*part9	*part8	*part8	*part7	*part7	*part6	*part6	*part6	*part5	*part5	*part5	*part4	*part4	*part4	*part3	*part3	*part3	*part2	*part2	*part1	*part1
*staff9	*	*	*staff8	*	*staff7	*	*staff6	*staff6	*	*staff5	*staff5	*	*staff4	*staff4	*	*staff3	*staff3	*	*staff2	*	*staff1	*
*I"Organo	*	*	*I"Violino Secondo	*	*I"Violino Primo	*	*I"Basso	*	*	*I"Tenore	*	*	*I"Alto	*	*	*I"Canto	*	*	*I"Cornu Secondo Ex D:	*	*I"Cornu Primo Ex D:	*
*I'org (=bc)	*	*	*I'vl 2	*	*I'vl 1	*	*I'B	*	*	*I'T	*	*	*I'A	*	*	*I'S	*	*	*I'cor 2	*	*I'cor 1	*
*ICklav	*	*	*ICstr	*	*ICstr	*	*ICvox	*	*	*ICvox	*	*	*ICvox	*	*	*ICvox	*	*	*ICbras	*	*ICbras	*
*Iorgan	*	*	*Ivioln	*	*Ivioln	*	*Ibass	*	*	*Itenor	*	*	*Ialto	*	*	*Isoprn	*	*	*Icor	*	*Icor	*
*clefF4	*	*	*clefG2	*	*clefG2	*	*clefF4	*	*	*clefC4	*	*	*clefC3	*	*	*clefC1	*	*	*clefG2	*	*clefG2	*
*	*	*	*	*	*	*	*	*	*	*	*	*	*	*	*	*	*	*	*ITrd-1c-2	*	*ITrd-1c-2	*
*k[f#c#]	*	*	*k[f#c#]	*	*k[f#c#]	*	*k[f#c#]	*	*	*k[c#f#]	*	*	*k[f#c#]	*	*	*k[f#c#]	*	*	*k[f#c#]	*	*k[f#c#]	*
*D:	*	*	*D:	*	*D:	*	*D:	*	*	*D:	*	*	*D:	*	*	*D:	*	*	*	*	*	*
*M2/2	*	*	*M2/2	*	*M2/2	*	*M2/2	*	*	*M2/2	*	*	*M2/2	*	*	*M2/2	*	*	*M2/2	*	*M2/2	*
*met(c|)	*	*	*met(c|)	*	*met(c|)	*	*met(c|)	*	*	*met(c|)	*	*	*met(c|)	*	*	*met(c|)	*	*	*met(c|)	*	*met(c|)	*
=1	=1	=1	=1	=1	=1	=1	=1	=1	=1	=1	=1	=1	=1	=1	=1	=1	=1	=1	=1	=1	=1	=1
*2\right	*	*	*2\right	*	*2\right	*	*2\right	*	*	*2\right	*	*	*2\right	*	*	*2\right	*	*	*2\right	*	*2\right	*2\right
!LO:TX:a:t=tutti	!	!	!	!	!	!	!	!	!	!LO:TX:a:t=P:problem= kolejność znaków c# f#	!	!	!	!	!	!	!	!	!L	!	!LO:TX:a:B:t=allo	!
!LO:TX:a:B:t=allo	!	!	!LO:TX:a:B:t=allo	!	!LO:TX:a:B:t=allo	!	!	!	!	!	!	!	!	!	!	!	!	!	!LO:TX:a:B:t=allo&colon;	!	!LO:TX:b:B:t=Magnificat	!
!LO:TX:b:B:t=Magnificat	!	!	!LO:TX:b:B:t=Magnificat	!LO:DY:a	!LO:TX:b:B:t=Magnificat	!LO:DY:a	!LO:TX:a:B:t=allo&colon;	!	!	!LO:TX:a:B:t=allo&colon;	!	!	!LO:TX:a:B:t=allo&colon;	!	!	!LO:TX:a:B:t=allo&colon;	!	!	!LO:TX:b:B:t=Magnificat	!	!LO:TX:t=P:problem= metrum alla breve C przekreślone z kropką w środku&colon;global	!LO:DY:a
!!LO:TX:t=P:problem: 2\right	!	!	!	!	!	!	!	!	!	!	!	!	!	!	!	!	!	!	!	!	!
!	!	!	!	!	!	!LO:DY:t=for&colon;	!	!	!	!	!	!	!	!	!	!	!	!	!	!	!	!
!	!	!	!	!LO:DY:t=for&colon;	!	!	!	!	!	!	!	!	!	!	!	!	!	!	!	!	!	!
!	!	!	!	!	!	!	!	!	!	!	!	!	!	!	!	!	!	!	!	!	!	!LO:DY:t=for&colon;
8D\L	.	.	8a/L	f	2d\ 2a 2ff#	f	2D\	Ma-	.	2A\	Ma-	.	2f#\	Ma-	.	2dd\	Ma-	.	2dd\	.	2ff#\	f
8D\	.	.	8a/	.	.	.	.	.	.	.	.	.	.	.	.	.	.	.	.	.	.	.
8D\	.	.	8a/	.	.	.	.	.	.	.	.	.	.	.	.	.	.	.	.	.	.	.
8D\J	.	.	8a/J	.	.	.	.	.	.	.	.	.	.	.	.	.	.	.	.	.	.	.
*tremolo	*	*	*	*	*	*	*	*	*	*	*	*	*	*	*	*	*	*	*	*	*	*
*	*	*	*tremolo	*	*	*	*	*	*	*	*	*	*	*	*	*	*	*	*	*	*	*
8C#/L	6 5	.	8a/L	.	4.gg\	.	4C#/	-gni-	.	4A\	-gni-	.	4g\	-gni-	.	4ee\	-gni-	.	2a/	.	2ee\	.
8C#/	.	.	8a/	.	.	.	.	.	.	.	.	.	.	.	.	.	.	.	.	.	.	.
8C#/	.	.	8a/	.	.	.	4C#/	-fi-	.	4A\	-fi-	.	4g\	-fi-	.	4ee\	-fi-	.	.	.	.	.
8C#/J	.	.	8a/J	.	16ff#\LL	.	.	.	.	.	.	.	.	.	.	.	.	.	.	.	.	.
.	.	.	.	.	16gg\JJ	.	.	.	.	.	.	.	.	.	.	.	.	.	.	.	.	.
=2	=2	=2	=2	=2	=2	=2	=2	=2	=2	=2	=2	=2	=2	=2	=2	=2	=2	=2	=2	=2	=2	=2
8D\L	.	.	8f#/L	.	(4.aa\	.	2D\	-cat	.	2A\	-cat	.	2f#\	-cat	.	2dd\	-cat	.	2f#/	.	2dd\	.
8D\	.	.	8f#/	.	.	.	.	.	.	.	.	.	.	.	.	.	.	.	.	.	.	.
8D\	.	.	8f#/	.	.	.	.	.	.	.	.	.	.	.	.	.	.	.	.	.	.	.
8D\J	.	.	8f#/J	.	8ff#\)	.	.	.	.	.	.	.	.	.	.	.	.	.	.	.	.	.
8F#\L	6	.	8a/L	.	4dd`\	.	2F#\	a-	.	2A\	a-	.	2f#\	a-	.	2dd\	a-	.	2dd\	.	2ff#\	.
8F#\	.	.	8a/	.	.	.	.	.	.	.	.	.	.	.	.	.	.	.	.	.	.	.
8F#\	.	.	8a/	.	4dd`\	.	.	.	.	.	.	.	.	.	.	.	.	.	.	.	.	.
8F#\J	.	.	8a/J	.	.	.	.	.	.	.	.	.	.	.	.	.	.	.	.	.	.	.
=3	=3	=3	=3	=3	=3	=3	=3	=3	=3	=3	=3	=3	=3	=3	=3	=3	=3	=3	=3	=3	=3	=3
8G\L	6	.	8b\L	.	(4.ee\	.	2G\	-ni-	.	2B\	-mi-	.	2g\	-ni-	.	2ee\	-ni-	.	2ee\	.	2gg\	.
8G\	.	.	8b\	.	.	.	.	.	.	.	.	.	.	.	.	.	.	.	.	.	.	.
8G\	.	.	8b\	.	.	.	.	.	.	.	.	.	.	.	.	.	.	.	.	.	.	.
8G\J	.	.	8b\J	.	16gg\LL)	.	.	.	.	.	.	.	.	.	.	.	.	.	.	.	.	.
.	.	.	.	.	16ff#\JJ	.	.	.	.	.	.	.	.	.	.	.	.	.	.	.	.	.
8A\L	.	.	8cc#\L	.	4ee`\	.	2A\	-ma	.	2A\	-na	.	2e\	-ma	.	2cc#\	-ma	.	2a/	.	2ee\	.
8A\	.	.	8cc#\	.	.	.	.	.	.	.	.	.	.	.	.	.	.	.	.	.	.	.
8A\	.	.	8cc#\	.	4ee`\	.	.	.	.	.	.	.	.	.	.	.	.	.	.	.	.	.
8A\J	.	.	8cc#\J	.	.	.	.	.	.	.	.	.	.	.	.	.	.	.	.	.	.	.
=4	=4	=4	=4	=4	=4	=4	=4	=4	=4	=4	=4	=4	=4	=4	=4	=4	=4	=4	=4	=4	=4	=4
8D\L	.	.	8a/L	.	4ff#\	.	2D\	me-	.	2A\	me-	.	2f#\	me-	.	2dd\	me-	.	2f#/	.	2dd\	.
8D\	.	.	8a/	.	.	.	.	.	.	.	.	.	.	.	.	.	.	.	.	.	.	.
8D\	.	.	8a/	.	16ff#\LL	.	.	.	.	.	.	.	.	.	.	.	.	.	.	.	.	.
.	.	.	.	.	16ee\	.	.	.	.	.	.	.	.	.	.	.	.	.	.	.	.	.
8D\J	.	.	8a/J	.	16ff#\	.	.	.	.	.	.	.	.	.	.	.	.	.	.	.	.	.
.	.	.	.	.	16gg\JJ	.	.	.	.	.	.	.	.	.	.	.	.	.	.	.	.	.
8F#\L	6	.	8a/L	.	4aa\	.	2F#\	-a	.	2A\	-a	.	2f#\	-a	.	2dd\	-a	.	2dd\	.	2ff#\	.
8F#\	.	.	8a/	.	.	.	.	.	.	.	.	.	.	.	.	.	.	.	.	.	.	.
8F#\	.	.	8a/	.	4dd\	.	.	.	.	.	.	.	.	.	.	.	.	.	.	.	.	.
8F#\J	.	.	8a/J	.	.	.	.	.	.	.	.	.	.	.	.	.	.	.	.	.	.	.
!	!	!	!	!	!LO:LB:g=original	!	!	!	!	!	!	!	!	!	!	!	!	!	!	!	!	!
=5	=5	=5	=5	=5	=5	=5	=5	=5	=5	=5	=5	=5	=5	=5	=5	=5	=5	=5	=5	=5	=5	=5
8G\L	6	.	8b\L	.	4.ee\	.	2G\	Do-	.	2B\	Do-	.	2g\	Do-	.	2ee\	Do-	.	2ee\	.	2gg\	.
8G\	.	.	8b\	.	.	.	.	.	.	.	.	.	.	.	.	.	.	.	.	.	.	.
8G\	.	.	8b\	.	.	.	.	.	.	.	.	.	.	.	.	.	.	.	.	.	.	.
8G\J	.	.	8b\J	.	16gg\LL	.	.	.	.	.	.	.	.	.	.	.	.	.	.	.	.	.
.	.	.	.	.	16ff#\JJ	.	.	.	.	.	.	.	.	.	.	.	.	.	.	.	.	.
8A\L	.	.	8cc#\L	.	4ee\	.	2A\	-mi-	.	2A\	-mi-	.	2e\	-mi-	.	2cc#\	-mi-	.	2a/	.	2ee\	.
!LO:LB:g=original	!	!	!LO:LB:g=original	!	!	!	!	!	!	!	!	!	!	!	!	!	!	!	!	!	!	!
8A\	.	.	8cc#\	.	.	.	.	.	.	.	.	.	.	.	.	.	.	.	.	.	.	.
8A\	.	.	8cc#\	.	4ee\	.	.	.	.	.	.	.	.	.	.	.	.	.	.	.	.	.
8A\J	.	.	8cc#\J	.	.	.	.	.	.	.	.	.	.	.	.	.	.	.	.	.	.	.
!	!	!	!	!	!	!	!LO:LB:g=original	!	!	!LO:LB:g=original	!	!	!LO:LB:g=original	!	!	!	!	!	!	!	!	!
=6	=6	=6	=6	=6	=6	=6	=6	=6	=6	=6	=6	=6	=6	=6	=6	=6	=6	=6	=6	=6	=6	=6
4D\	.	.	4dd\	.	4ff#\	.	2D\	-num	.	2A\	-num	.	2f#\	-num	.	2dd\	-num	.	4f#/	.	4dd\	.
4d\	.	.	8dd\L	.	8ff#\L	.	.	.	.	.	.	.	.	.	.	.	.	.	4f#/	.	4dd\	.
.	.	.	8ff#\J	.	8aa\J	.	.	.	.	.	.	.	.	.	.	.	.	.	.	.	.	.
4D\	.	.	4f#\ 4dd	.	4d\ 4a 4ff#	.	2r	.	.	2r	.	.	2r	.	.	2r	.	.	4f#/	.	4dd\	.
4r	.	.	4r	.	4r	.	.	.	.	.	.	.	.	.	.	.	.	.	4r	.	4r	.
!	!	!	!	!	!	!	!	!	!	!	!	!	!	!	!	!LO:LB:g=original	!	!	!	!	!	!
=7	=7	=7	=7	=7	=7	=7	=7	=7	=7	=7	=7	=7	=7	=7	=7	=7	=7	=7	=7	=7	=7	=7
!	!	!	!	!LO:DY:a	!LO:TX:a:t=dol&colon;	!LO:DY:a	!	!	!	!	!	!	!	!	!	!	!	!	!	!	!	!
!	!	!	!	!	!	!LO:DY:t=p&colon;	!	!	!	!	!	!	!	!	!	!	!	!	!	!	!	!
!	!	!	!	!LO:DY:t=p&colon;	!	!	!	!	!	!	!	!	!	!	!	!	!	!	!	!	!	!
1r	.	.	8d/L	p	8dd\L	p	1r	.	.	1r	.	.	1r	.	.	1r	.	.	1r	.	1r	.
.	.	.	8e/	.	8ee\	.	.	.	.	.	.	.	.	.	.	.	.	.	.	.	.	.
!	!	!	!LO:TX:a:t=dol&colon;	!	!	!	!	!	!	!	!	!	!	!	!	!	!	!	!	!	!	!
.	.	.	8f#/	.	8ff#\	.	.	.	.	.	.	.	.	.	.	.	.	.	.	.	.	.
.	.	.	8g/J	.	8gg\J	.	.	.	.	.	.	.	.	.	.	.	.	.	.	.	.	.
.	.	.	8a/L	.	8aa\L	.	.	.	.	.	.	.	.	.	.	.	.	.	.	.	.	.
.	.	.	8g/	.	8gg\	.	.	.	.	.	.	.	.	.	.	.	.	.	.	.	.	.
.	.	.	8f#/	.	8ff#\	.	.	.	.	.	.	.	.	.	.	.	.	.	.	.	.	.
.	.	.	8e/J	.	8ee\J	.	.	.	.	.	.	.	.	.	.	.	.	.	.	.	.	.
!	!	!	!	!	!	!	!	!	!	!	!	!	!	!	!	!	!	!	!	!	!LO:LB:g=original	!
!	!	!	!	!	!	!	!	!	!	!	!	!	!	!	!	!	!	!	!LO:LB:g=original	!	!	!
=8	=8	=8	=8	=8	=8	=8	=8	=8	=8	=8	=8	=8	=8	=8	=8	=8	=8	=8	=8	=8	=8	=8
!	!	!LO:DY:a	!	!	!	!	!	!	!LO:DY:a	!	!	!LO:DY:a	!	!	!LO:DY:a	!	!	!LO:DY:a	!	!LO:DY:a	!	!LO:DY:a
!	!	!	!	!	!	!	!	!	!	!	!	!	!	!	!	!	!	!LO:DY:t=p&colon;	!	!	!	!
!	!	!	!	!	!	!	!	!	!LO:DY:t=p&colon;	!	!	!LO:DY:t=p&colon;	!	!	!LO:DY:t=p&colon;	!	!	!	!	!	!	!
!	!	!	!	!	!	!	!	!	!	!	!	!	!	!	!	!	!	!	!	!	!	!LO:DY:t=p&colon;
!	!	!	!	!	!	!	!	!	!	!	!	!	!	!	!	!	!	!	!	!LO:DY:t=p&colon;	!	!
!	!	!LO:DY:t=pia&colon;	!	!	!	!	!	!	!	!	!	!	!	!	!	!	!	!	!	!	!	!
4r	.	p	8e/L	.	8ee\L	.	4r	.	p	4r	.	p	4r	.	p	4r	.	p	4r	p	4r	p
.	.	.	8d/J	.	8dd\J	.	.	.	.	.	.	.	.	.	.	.	.	.	.	.	.	.
!	!	!	!	!	!	!	!LO:SIC:s=et	!	!	!LO:SIC:s=et	!	!	!LO:SIC:s=et	!	!	!	!	!	!	!	!	!
4D\	.	.	2d/	.	2dd\	.	4D\	&	.	4A\	&	.	4f#\	&	.	4dd\	Et	.	4f#/	.	4dd\	.
4F#\	.	.	.	.	.	.	4F#\	ex-	.	4A\	ex-	.	4f#\	ex-	.	4dd\	ex-	.	4f#/	.	4dd\	.
!	!	!	!	!	!	!	!LO:SIC:s=sul-	!	!	!LO:SIC:s=sul-	!	!	!LO:SIC:s=sul-	!	!	!LO:SIC:s=sul-	!	!	!	!	!	!
4D\	.	.	8f#/L	.	8ff#\L	.	4D\	-ul-	.	4A\	-ul-	.	4f#\	-ul-	.	4dd\	-ul-	.	4f#/	.	4dd\	.
.	.	.	8d/J	.	8dd\J	.	.	.	.	.	.	.	.	.	.	.	.	.	.	.	.	.
=9	=9	=9	=9	=9	=9	=9	=9	=9	=9	=9	=9	=9	=9	=9	=9	=9	=9	=9	=9	=9	=9	=9
4A\	.	.	8c#/L	.	8cc#\L	.	4A\	-ta-	.	4A\	-ta-	.	4e\	-ta-	.	4cc#\	-ta-	.	4a/	.	4ee\	.
.	.	.	8d/	.	8dd\	.	.	.	.	.	.	.	.	.	.	.	.	.	.	.	.	.
4AA/	.	.	8e/	.	8ee\	.	4AA/	-vit	.	4A\	-vit	.	4e\	-vit	.	4cc#\	-vit	.	4a/	.	4ee\	.
.	.	.	8f#/J	.	8ff#\J	.	.	.	.	.	.	.	.	.	.	.	.	.	.	.	.	.
2r	.	.	8g/L	.	8gg\L	.	2r	.	.	2r	.	.	2r	.	.	2r	.	.	2r	.	2r	.
.	.	.	8f#/	.	8ff#\	.	.	.	.	.	.	.	.	.	.	.	.	.	.	.	.	.
.	.	.	8e/	.	8ee\	.	.	.	.	.	.	.	.	.	.	.	.	.	.	.	.	.
.	.	.	8d/J	.	8dd\J	.	.	.	.	.	.	.	.	.	.	.	.	.	.	.	.	.
!	!	!	!	!	!LO:LB:g=original	!	!	!	!	!	!	!	!LO:LB:g=original	!	!	!	!	!	!	!	!	!
=10	=10	=10	=10	=10	=10	=10	=10	=10	=10	=10	=10	=10	=10	=10	=10	=10	=10	=10	=10	=10	=10	=10
4r	.	.	8d/L	.	8dd\L	.	4r	.	.	4r	.	.	4r	.	.	4r	.	.	4r	.	4r	.
.	.	.	8c#/J	.	8cc#\J	.	.	.	.	.	.	.	.	.	.	.	.	.	.	.	.	.
!	!	!	!	!	!	!	!LO:SIC:s=et	!	!	!LO:SIC:s=et	!	!	!LO:SIC:s=et	!	!	!	!	!	!	!	!	!
*	*	*	*	*	*	*	*	*ij	*	*	*	*	*	*	*	*	*ij	*	*	*	*	*
4AA/	.	.	2c#/	.	2cc#\	.	4A\	&	.	4A\	Spi-	.	4e\	&	.	4cc#\	Et	.	4a/	.	4ee\	.
!	!	!	!	!	!	!	!	!	!	!LO:SIC:s=ex-	!	!	!	!	!	!	!	!	!	!	!	!
4A\	.	.	.	.	.	.	4A\	ex-	.	4A\	-ri-	.	4e\	ex-	.	4cc#\	ex-	.	4a/	.	4ee\	.
!	!	!	!	!	!	!	!LO:SIC:s=sul-	!	!	!LO:SIC:s=sul-	!	!	!LO:SIC:s=sul-	!	!	!LO:SIC:s=sul-	!	!	!	!	!	!
4AA/	.	.	8B/L	.	8b\L	.	4A\	-ul-	.	4A\	-tus	.	4e\	-ul-	.	4cc#\	-ul-	.	4a/	.	4ee\	.
.	.	.	8c#/J	.	8cc#\J	.	.	.	.	.	.	.	.	.	.	.	.	.	.	.	.	.
!	!	!	!LO:LB:g=original	!	!	!	!	!	!	!	!	!	!	!	!	!	!	!	!	!	!	!
=11	=11	=11	=11	=11	=11	=11	=11	=11	=11	=11	=11	=11	=11	=11	=11	=11	=11	=11	=11	=11	=11	=11
!	!	!	!	!	!	!	!	!	!	!LO:SIC:s=ta-	!	!	!	!	!	!	!	!	!	!	!	!
4D\	.	.	8d/L	.	8dd\L	.	4d\	-ta-	.	4A\	me-	.	4f#\	-ta-	.	4dd\	-ta-	.	4f#/	.	4dd\	.
.	.	.	8e/	.	8ee\	.	.	.	.	.	.	.	.	.	.	.	.	.	.	.	.	.
!	!	!	!	!	!	!	!	!	!	!LO:SIC:s=vit	!	!	!	!	!	!	!	!	!	!	!	!
4D\	.	.	8f#/	.	8ff#\	.	4D\	-vit	.	4A\	-us	.	4f#\	-vit	.	4dd\	-vit	.	4f#/	.	4dd\	.
*	*	*	*	*	*	*	*	*Xij	*	*	*	*	*	*ij	*	*	*	*	*	*	*	*
.	.	.	8g/J	.	8gg\J	.	.	.	.	.	.	.	.	.	.	.	.	.	.	.	.	.
!	!	!	!	!	!	!	!LO:LB:g=original	!	!	!	!	!	!	!	!	!	!	!	!	!	!	!
4r	.	.	8a/L	.	8aa\L	.	4r	.	.	4r	.	.	4r	.	.	4r	.	.	2r	.	2r	.
.	.	.	8f#/	.	8ff#\	.	.	.	.	.	.	.	.	.	.	.	.	.	.	.	.	.
!	!	!	!	!	!	!	!LO:SIC:s=et	!	!	!LO:SIC:s=et	!	!	!LO:SIC:s=et	!	!	!	!	!	!	!	!	!
4F#\	6 3	.	8e/	.	8ee\	.	4F#\	&	.	4A\	&	.	4a\	&	.	4dd\	Et	.	.	.	.	.
.	.	.	8d/J	.	8dd\J	.	.	.	.	.	.	.	.	.	.	.	.	.	.	.	.	.
!	!	!	!	!	!	!	!	!	!	!LO:LB:g=original	!	!	!	!	!	!	!	!	!	!	!	!
=12	=12	=12	=12	=12	=12	=12	=12	=12	=12	=12	=12	=12	=12	=12	=12	=12	=12	=12	=12	=12	=12	=12
2G\	5:6 3	.	8d#X/L	.	8dd#X\L	.	2G\	ex-	.	2B\	ex-	.	2b\	ex-	.	2ee\	ex-	.	1r	.	1r	.
.	.	.	8e/J	.	8ee\J	.	.	.	.	.	.	.	.	.	.	.	.	.	.	.	.	.
.	.	.	2e/	.	2ee\	.	.	.	.	.	.	.	.	.	.	.	.	.	.	.	.	.
!	!	!	!	!	!	!	!LO:SIC:s=sul-	!	!	!LO:SIC:s=sul-	!	!	!LO:SIC:s=sul-	!	!	!LO:SIC:s=sul-	!	!	!	!	!	!
2A\	.	.	.	.	.	.	2A\	-ul-	.	2A\	-ul-	.	2cc#\	-ul-	.	2ff#\	-ul-	.	.	.	.	.
.	.	.	4f#/	.	4ff#\	.	.	.	.	.	.	.	.	.	.	.	.	.	.	.	.	.
!LO:LB:g=original	!	!	!	!	!	!	!	!	!	!	!	!	!	!	!	!	!	!	!	!	!	!
=13	=13	=13	=13	=13	=13	=13	=13	=13	=13	=13	=13	=13	=13	=13	=13	=13	=13	=13	=13	=13	=13	=13
2B\	7:6 3	.	8a/L	.	8aa\L	.	2B\	-ta-	.	2G/	-ta-	.	2dd\	-ta-	.	2gg\	-ta-	.	1r	.	1r	.
.	.	.	8g/J	.	8gg\J	.	.	.	.	.	.	.	.	.	.	.	.	.	.	.	.	.
.	.	.	2g/	.	2gg\	.	.	.	.	.	.	.	.	.	.	.	.	.	.	.	.	.
2A\	.	.	.	.	.	.	2A\	-vit	.	2A\	-vit	.	2cc#\	-vit	.	2ff#\	-vit	.	.	.	.	.
.	.	.	4f#/	.	4ff#\	.	.	.	.	.	.	.	.	.	.	.	.	.	.	.	.	.
*	*	*	*	*	*	*	*	*	*	*	*	*	*	*Xij	*	*	*Xij	*	*	*	*	*
!	!	!	!	!	!	!	!	!	!	!	!	!	!	!	!	!LO:LB:g=original	!	!	!	!	!	!
=14	=14	=14	=14	=14	=14	=14	=14	=14	=14	=14	=14	=14	=14	=14	=14	=14	=14	=14	=14	=14	=14	=14
2G\	6 3_	.	8f#/L	.	8ff#\L	.	2G\	Spi-	.	2B\	Spi-	.	2b\	Spi-	.	2ee\	Spi-	.	1r	.	1r	.
.	.	.	8e/J	.	8ee\J	.	.	.	.	.	.	.	.	.	.	.	.	.	.	.	.	.
.	.	.	2e/	.	2ee\	.	.	.	.	.	.	.	.	.	.	.	.	.	.	.	.	.
2G#X\	6:4	.	.	.	.	.	4G#X\	-ri-	.	4B\	-ri-	.	4b\	-ri-	.	4dd\	-ri-	.	.	.	.	.
.	.	.	4d/	.	4dd\	.	4G#\	-tus	.	4B\	-tus	.	4b\	-tus	.	4dd\	-tus	.	.	.	.	.
!	!	!	!	!	!	!	!	!	!	!	!	!	!LO:LB:g=original	!	!	!	!	!	!	!	!	!
=15	=15	=15	=15	=15	=15	=15	=15	=15	=15	=15	=15	=15	=15	=15	=15	=15	=15	=15	=15	=15	=15	=15
.	.	.	.	.	8qqdd/	.	.	.	.	.	.	.	.	.	.	.	.	.	.	.	.	.
!	!	!	!	!LO:DY:a	!	!	!	!	!	!	!	!	!	!	!	!	!	!	!	!	!	!
4A\	x 3	.	4c#/	fz	4cc#\	.	4A\	me-	.	4A\	me-	.	4e\	me-	.	4cc#\	me-	.	2r	.	2r	.
!	!	!	!	!	!LO:LB:g=original	!LO:DY:a	!	!	!	!	!	!	!	!	!	!	!	!	!	!	!	!
4AA/	.	.	8r	.	8r	fz	4GG/	-us	.	4A\	-us	.	4e\	-us	.	4cc#\	-us	.	.	.	.	.
!	!	!	!	!	!LO:TX:a:t=6	!	!	!	!	!	!	!	!	!	!	!	!	!	!	!	!	!
*	*	*	*	*	*Xtuplet	*	*	*	*	*	*	*	*	*	*	*	*	*	*	*	*	*
.	.	.	24e/LL	.	24ee\LL	.	.	.	.	.	.	.	.	.	.	.	.	.	.	.	.	.
.	.	.	24f#/	.	24ff#\	.	.	.	.	.	.	.	.	.	.	.	.	.	.	.	.	.
.	.	.	24g#X/JJ	.	24gg#X\JJ	.	.	.	.	.	.	.	.	.	.	.	.	.	.	.	.	.
!LO:TX:a:t=tutti	!	!	!	!	!	!	!	!	!LO:DY:a	!	!LO:DY:t=f&colon;	!LO:DY:a	!	!	!LO:DY:a	!	!	!LO:DY:a	!	!LO:DY:a	!	!LO:DY:a
!	!	!	!	!	!	!	!	!	!LO:DY:t=f&colon;	!	!	!	!	!	!	!	!	!	!	!	!	!
!	!	!	!	!	!	!	!	!	!	!	!	!LO:DY:t=f&colon;	!	!	!	!	!	!	!	!	!	!
!	!	!	!	!	!	!	!	!	!	!	!	!	!	!	!	!	!	!	!	!LO:DY:t=for&colon;	!	!
4r	.	.	8a`/L	.	8aa'\L	.	4r	.	f	4r	.	f	4r	.	fz	4r	.	fz	4r	f	4r	fz
.	.	.	8a`/	.	8aa'\	.	.	.	.	.	.	.	.	.	.	.	.	.	.	.	.	.
4c#\	6 5	.	8gn`/	.	8ggn'\	.	4c#\	in	.	4A\	in	.	4g\	in	.	4ee\	in	.	4a/	.	4ee\	.
.	.	.	8g`/J	.	8gg'\J	.	.	.	.	.	.	.	.	.	.	.	.	.	.	.	.	.
!	!	!	!LO:LB:g=original	!	!	!	!	!	!	!	!	!	!	!	!	!	!	!	!	!	!	!
=16	=16	=16	=16	=16	=16	=16	=16	=16	=16	=16	=16	=16	=16	=16	=16	=16	=16	=16	=16	=16	=16	=16
4d\	.	.	4f#/	.	4ff#`\	.	4d\	De-	.	4A\	De-	.	4f#\	De-	.	4dd\	De-	.	4dd\	.	4ff#\	.
4d\	.	.	8r	.	8r	.	4d\	-o	.	4A\	-o	.	4f#\	-o	.	4dd\	-o	.	4dd\	.	4ff#\	.
.	.	.	(16d/LL	.	(16dd\LL	.	.	.	.	.	.	.	.	.	.	.	.	.	.	.	.	.
.	.	.	16e/JJ)	.	16ee\JJ)	.	.	.	.	.	.	.	.	.	.	.	.	.	.	.	.	.
4r	.	.	8f#/L	.	8ff#\L	.	4r	.	.	4r	.	.	4r	.	.	4r	.	.	4r	.	4r	.
.	.	.	8g#X/J	.	8gg#X\J	.	.	.	.	.	.	.	.	.	.	.	.	.	.	.	.	.
!	!	!	!LO:TX:a:t=t	!	!LO:TX:a:t=t	!	!	!	!	!	!	!	!	!	!	!	!	!	!	!	!	!
*	*	*	*	*	*	*	*	*	*	*	*ij	*	*	*ij	*	*	*ij	*	*	*	*	*
4B\	6| 3	.	(8.g#/L	.	(8.gg#\L	.	4B\	in	.	4e\	in	.	4g#X\	in	.	4dd\	in	.	4ee\	.	4ee\	.
.	.	.	32f#/LL	.	32ff#\LL	.	.	.	.	.	.	.	.	.	.	.	.	.	.	.	.	.
.	.	.	32g#/JJJ)	.	32gg#\JJJ)	.	.	.	.	.	.	.	.	.	.	.	.	.	.	.	.	.
!	!	!	!	!	!	!	!LO:LB:g=original	!	!	!	!	!	!	!	!	!	!	!	!	!	!	!
!	!	!	!	!	!	!	!	!	!	!	!	!	!	!	!	!	!	!	!	!	!LO:LB:g=original	!
!	!	!	!	!	!	!	!	!	!	!	!	!	!	!	!	!	!	!	!LO:LB:g=original	!	!	!
=17	=17	=17	=17	=17	=17	=17	=17	=17	=17	=17	=17	=17	=17	=17	=17	=17	=17	=17	=17	=17	=17	=17
4A\	6 n5r	.	4a/	.	4aa\	.	4A\	De-	.	4e\	De-	.	4a\	De-	.	4cc#\	De-	.	4a/	.	4ee\	.
4A\	.	.	8r	.	8r	.	4A\	-o	.	4e\	-o	.	4a\	-o	.	4cc#\	-o	.	4a/	.	4ee\	.
.	.	.	24e/LL	.	(24ee\LL	.	.	.	.	.	.	.	.	.	.	.	.	.	.	.	.	.
*	*	*	*	*	*	*	*	*	*	*	*Xij	*	*	*	*	*	*	*	*	*	*	*
.	.	.	24f#/	.	24ff#\	.	.	.	.	.	.	.	.	.	.	.	.	.	.	.	.	.
.	.	.	24g#X/JJ	.	24gg#X\JJ)	.	.	.	.	.	.	.	.	.	.	.	.	.	.	.	.	.
4r	.	.	8a`/L	.	8aa`\L	.	4r	.	.	4r	.	.	4r	.	.	4r	.	.	4r	.	4r	.
.	.	.	8a`/	.	8aa`\	.	.	.	.	.	.	.	.	.	.	.	.	.	.	.	.	.
4c#\	.	.	8gn`/	.	8ggn`\	.	4c#\	in	.	4A\	in	.	4gn\	in	.	4ee\	in	.	4a/	.	4ee\	.
.	.	.	8g`/J	.	8gg`\J	.	.	.	.	.	.	.	.	.	.	.	.	.	.	.	.	.
!	!	!	!	!	!	!	!	!	!	!LO:LB:g=original	!	!	!	!	!	!	!	!	!	!	!	!
=18	=18	=18	=18	=18	=18	=18	=18	=18	=18	=18	=18	=18	=18	=18	=18	=18	=18	=18	=18	=18	=18	=18
4d\	.	.	4f#/	.	4ff#\	.	4d\	De-	.	4A\	De-	.	4f#\	De-	.	4dd\	De-	.	4dd\	.	4ff#\	.
4d\	.	.	8r	.	8r	.	4d\	-o	.	4A\	-o	.	4f#\	-o	.	4dd\	-o	.	4dd\	.	4ff#\	.
*	*	*	*	*	*	*	*	*ij	*	*	*	*	*	*	*	*	*	*	*	*	*	*
.	.	.	(16d/LL	.	(16dd\LL	.	.	.	.	.	.	.	.	.	.	.	.	.	.	.	.	.
.	.	.	16e/JJ	.	16ee\JJ)	.	.	.	.	.	.	.	.	.	.	.	.	.	.	.	.	.
!	!	!	!	!	!LO:LB:g=original	!	!	!	!	!	!	!	!	!	!	!	!	!	!	!	!	!
4r	.	.	8f#/L)	.	8ff#\L	.	4r	.	.	4r	.	.	4r	.	.	4r	.	.	4r	.	4r	.
.	.	.	8g#X/J	.	8gg#X\J	.	.	.	.	.	.	.	.	.	.	.	.	.	.	.	.	.
!	!	!	!LO:TX:a:t=t	!	!LO:TX:a:t=t	!	!	!	!	!	!	!	!	!	!	!	!	!	!	!	!	!
4B\	6| 3	.	(8.g#/L	.	8.gg#\L	.	4B\	in	.	4e\	in	.	4g#X\	in	.	4dd\	in	.	4ee\	.	4ee\	.
.	.	.	32f#/LL	.	32ff#\LL	.	.	.	.	.	.	.	.	.	.	.	.	.	.	.	.	.
.	.	.	32g#/JJJ)	.	32gg#\JJJ	.	.	.	.	.	.	.	.	.	.	.	.	.	.	.	.	.
!LO:LB:g=original	!	!	!	!	!	!	!	!	!	!	!	!	!	!	!	!	!	!	!	!	!	!
=19	=19	=19	=19	=19	=19	=19	=19	=19	=19	=19	=19	=19	=19	=19	=19	=19	=19	=19	=19	=19	=19	=19
4A\	.	.	4a/	.	4aa\	.	4A\	De-	.	4e\	De-	.	4a\	De-	.	4cc#\	De-	.	4a/	.	4ee\	.
4A\	.	.	8r	.	8r	.	4A\	-o	.	4e\	-o	.	4a\	-o	.	4cc#\	-o	.	4a/	.	4ee\	.
*	*	*	*	*	*tuplet	*	*	*	*	*	*	*	*	*	*	*	*	*	*	*	*	*
.	.	.	(24e/LL	.	(24ee\LL	.	.	.	.	.	.	.	.	.	.	.	.	.	.	.	.	.
*	*	*	*	*	*	*	*	*	*	*	*	*	*	*Xij	*	*	*Xij	*	*	*	*	*
.	.	.	24f#/	.	24ff#\	.	.	.	.	.	.	.	.	.	.	.	.	.	.	.	.	.
.	.	.	24g#X/JJ)	.	24gg#X\JJ)	.	.	.	.	.	.	.	.	.	.	.	.	.	.	.	.	.
!	!	!	!LO:LB:g=original	!	!	!	!	!	!	!	!	!	!LO:LB:g=original	!	!	!LO:LB:g=original	!	!	!	!	!	!
4r	.	.	8a/L	.	8aa\L	.	4r	.	.	4r	.	.	4r	.	.	4r	.	.	4r	.	4r	.
.	.	.	8a/	.	8aa\	.	.	.	.	.	.	.	.	.	.	.	.	.	.	.	.	.
4c#\	6 n5r	.	8gn/	.	8ggn\	.	4c#\	in	.	4e\	in	.	4a\	in	.	4ee\	in	.	4a/	.	4ee\	.
.	.	.	8g/J	.	8gg\J	.	.	.	.	.	.	.	.	.	.	.	.	.	.	.	.	.
=20	=20	=20	=20	=20	=20	=20	=20	=20	=20	=20	=20	=20	=20	=20	=20	=20	=20	=20	=20	=20	=20	=20
8d\L	.	.	8f#/L	.	8gg\L	.	2d\	De-	.	2d\	De-	.	2a\	De-	.	2ff#\	De-	.	2dd\	.	2ff#\	.
8d\	.	.	8f#/	.	8ff#\J	.	.	.	.	.	.	.	.	.	.	.	.	.	.	.	.	.
8d\	.	.	8f#/	.	2aa\	.	.	.	.	.	.	.	.	.	.	.	.	.	.	.	.	.
8d\J	.	.	8f#/J	.	.	.	.	.	.	.	.	.	.	.	.	.	.	.	.	.	.	.
8c#\L	6	.	8e/L	.	.	.	2c#\	-o	.	2e\	-o	.	2a\	-o	.	2ee\	-o	.	2a/	.	2ee\	.
*	*	*	*	*	*	*	*	*Xij	*	*	*Xij	*	*	*	*	*	*	*	*	*	*	*
8c#\	.	.	8e/	.	.	.	.	.	.	.	.	.	.	.	.	.	.	.	.	.	.	.
8c#\	.	.	8a/	.	16aa\LL	.	.	.	.	.	.	.	.	.	.	.	.	.	.	.	.	.
.	.	.	.	.	16gg\	.	.	.	.	.	.	.	.	.	.	.	.	.	.	.	.	.
8c#\J	.	.	8a/J	.	16ff#\	.	.	.	.	.	.	.	.	.	.	.	.	.	.	.	.	.
.	.	.	.	.	16ee\JJ	.	.	.	.	.	.	.	.	.	.	.	.	.	.	.	.	.
=21	=21	=21	=21	=21	=21	=21	=21	=21	=21	=21	=21	=21	=21	=21	=21	=21	=21	=21	=21	=21	=21	=21
8B\L	6| 3	.	8dd\L	.	8ff#\L	.	2B\	Sa-	.	2e\	Sa-	.	2g#X\	Sa-	.	2dd\	Sa-	.	2ee\	.	1ee	.
8B\	.	.	8dd\	.	8gg#X\J	.	.	.	.	.	.	.	.	.	.	.	.	.	.	.	.	.
8B\	.	.	8dd\	.	4.gg#\	.	.	.	.	.	.	.	.	.	.	.	.	.	.	.	.	.
8B\J	.	.	8dd\J	.	.	.	.	.	.	.	.	.	.	.	.	.	.	.	.	.	.	.
8A\L	.	.	8cc#\L	.	.	.	2A\	-lu-	.	2e\	-lu-	.	2a\	-lu-	.	2cc#\	-lu-	.	2a/	.	.	.
8A\	.	.	8cc#\	.	8aa\	.	.	.	.	.	.	.	.	.	.	.	.	.	.	.	.	.
8A\	.	.	8cc#\	.	8aa\L	.	.	.	.	.	.	.	.	.	.	.	.	.	.	.	.	.
8A\J	.	.	8cc#\J	.	16gg#\L	.	.	.	.	.	.	.	.	.	.	.	.	.	.	.	.	.
.	.	.	.	.	16aa\JJ	.	.	.	.	.	.	.	.	.	.	.	.	.	.	.	.	.
!	!	!	!	!	!LO:LB:g=original	!	!LO:LB:g=original	!	!	!	!	!	!	!	!	!	!	!	!	!	!	!
=22	=22	=22	=22	=22	=22	=22	=22	=22	=22	=22	=22	=22	=22	=22	=22	=22	=22	=22	=22	=22	=22	=22
8d\L	6	.	4b\	.	4ff#\	.	4d\	-ta-	.	4f#\	-ta-	.	4b\	-ta-	.	4dd\	-ta-	.	2dd\	.	2ff#\	.
8d\	.	.	.	.	.	.	.	.	.	.	.	.	.	.	.	.	.	.	.	.	.	.
8d\	.	.	8dd\L	.	8ff#\L	.	4d\	-ri	.	4f#\	-ri	.	4b\	-ri	.	4dd\	-ri	.	.	.	.	.
8d\J	.	.	16cc#\L	.	16ee\L	.	.	.	.	.	.	.	.	.	.	.	.	.	.	.	.	.
.	.	.	16b\JJ	.	16dd\JJ	.	.	.	.	.	.	.	.	.	.	.	.	.	.	.	.	.
8e\L	4	.	4a/	.	4cc#\	.	4e\	me-	.	2e\	me-	.	4a\	me-	.	(4cc#\	me-	.	2ee\	.	4ee\	.
8e\	.	.	.	.	.	.	.	.	.	.	.	.	.	.	.	.	.	.	.	.	.	.
8E\	#	.	4g#X/	.	4b\	.	4E\	.	.	.	.	.	4g#X\	.	.	4b\)	.	.	.	.	4ee\	.
8E\J	.	.	.	.	.	.	.	.	.	.	.	.	.	.	.	.	.	.	.	.	.	.
=23	=23	=23	=23	=23	=23	=23	=23	=23	=23	=23	=23	=23	=23	=23	=23	=23	=23	=23	=23	=23	=23	=23
4A\	.	.	4a/	.	8cc#\L	.	2A\	-o	.	2e\	-o	.	4a\	-o	.	4cc#\	-o	.	4a/	.	4ee\	.
.	.	.	.	.	8ee\J	.	.	.	.	.	.	.	.	.	.	.	.	.	.	.	.	.
4AA/	.	.	4e/	.	4cc#\	.	.	.	.	.	.	.	4r	.	.	4r	.	.	4a/	.	4ee\	.
!	!	!	!LO:TX:a:t=dol&colon;	!	!LO:TX:a:t=dol&colon;	!	!	!	!	!	!	!	!	!	!	!	!	!	!	!	!	!
4A\	.	.	8r	.	8r	.	2r	.	.	2r	.	.	2r	.	.	2r	.	.	2r	.	2r	.
.	.	.	8e`/L	.	8ee`\L	.	.	.	.	.	.	.	.	.	.	.	.	.	.	.	.	.
!	!	!LO:DY:a	!	!	!	!	!	!	!	!	!	!	!	!	!	!	!	!	!	!	!	!
!	!	!	!LO:LB:g=original	!	!	!	!	!	!	!	!	!	!	!	!	!	!	!	!	!	!	!
!	!	!LO:DY:t=pia&colon;	!	!	!	!	!	!	!	!	!	!	!	!	!	!	!	!	!	!	!	!
4r	.	p	8e`/	.	8ee`\	.	.	.	.	.	.	.	.	.	.	.	.	.	.	.	.	.
.	.	.	8e`/J	.	8ee`\J	.	.	.	.	.	.	.	.	.	.	.	.	.	.	.	.	.
!	!	!	!	!	!	!	!	!	!	!LO:LB:g=original	!	!	!	!	!	!	!	!	!	!	!	!
!	!	!	!	!	!	!	!	!	!	!	!	!	!	!	!	!	!	!	!	!	!LO:LB:g=original	!
!	!	!	!	!	!	!	!	!	!	!	!	!	!	!	!	!	!	!	!LO:LB:g=original	!	!	!
=24	=24	=24	=24	=24	=24	=24	=24	=24	=24	=24	=24	=24	=24	=24	=24	=24	=24	=24	=24	=24	=24	=24
4r	.	.	(8e/L	.	(8ee\L	.	1r	.	.	1r	.	.	1r	.	.	1r	.	.	1r	.	1r	.
.	.	.	8d/J)	.	8dd\J)	.	.	.	.	.	.	.	.	.	.	.	.	.	.	.	.	.
4G#X\	6_ 5_	.	4B/	.	4b`\	.	.	.	.	.	.	.	.	.	.	.	.	.	.	.	.	.
4G#\	.	.	8r	.	8r	.	.	.	.	.	.	.	.	.	.	.	.	.	.	.	.	.
.	.	.	8e`/L	.	8ee`\L	.	.	.	.	.	.	.	.	.	.	.	.	.	.	.	.	.
4G#\	.	.	8e`/	.	8ee`\	.	.	.	.	.	.	.	.	.	.	.	.	.	.	.	.	.
.	.	.	8e`/J	.	8ee`\J	.	.	.	.	.	.	.	.	.	.	.	.	.	.	.	.	.
=25	=25	=25	=25	=25	=25	=25	=25	=25	=25	=25	=25	=25	=25	=25	=25	=25	=25	=25	=25	=25	=25	=25
4r	.	.	(8e/L	.	(8ee\L	.	1r	.	.	1r	.	.	1r	.	.	1r	.	.	1r	.	1r	.
.	.	.	8d/J)	.	8dd\J)	.	.	.	.	.	.	.	.	.	.	.	.	.	.	.	.	.
4A\	.	.	4c#`/	.	4cc#`\	.	.	.	.	.	.	.	.	.	.	.	.	.	.	.	.	.
4A\	.	.	8r	.	8r	.	.	.	.	.	.	.	.	.	.	.	.	.	.	.	.	.
.	.	.	8e`/L	.	8ee`\L	.	.	.	.	.	.	.	.	.	.	.	.	.	.	.	.	.
4A\	.	.	8e`/	.	8ee`\	.	.	.	.	.	.	.	.	.	.	.	.	.	.	.	.	.
.	.	.	8e/J	.	8ee`\J	.	.	.	.	.	.	.	.	.	.	.	.	.	.	.	.	.
!	!	!	!	!	!LO:LB:g=original	!	!	!	!	!	!	!	!	!	!	!	!	!	!	!	!	!
=26	=26	=26	=26	=26	=26	=26	=26	=26	=26	=26	=26	=26	=26	=26	=26	=26	=26	=26	=26	=26	=26	=26
4r	.	.	(8e#X/L	.	8ee#X\L	.	1r	.	.	1r	.	.	1r	.	.	1r	.	.	1r	.	1r	.
.	.	.	8f#/J)	.	8ff#\	.	.	.	.	.	.	.	.	.	.	.	.	.	.	.	.	.
4D\	6	.	8dd\L	.	8ff#\	.	.	.	.	.	.	.	.	.	.	.	.	.	.	.	.	.
.	.	.	8b\J	.	8dd\J	.	.	.	.	.	.	.	.	.	.	.	.	.	.	.	.	.
4E\	4	.	8b/L	.	8dd\L	.	.	.	.	.	.	.	.	.	.	.	.	.	.	.	.	.
.	.	.	8a/	.	8cc#\	.	.	.	.	.	.	.	.	.	.	.	.	.	.	.	.	.
4EE/	3	.	8a/	.	8cc#\	.	.	.	.	.	.	.	.	.	.	.	.	.	.	.	.	.
.	.	.	8g#X/J	.	8b\J	.	.	.	.	.	.	.	.	.	.	.	.	.	.	.	.	.
=27	=27	=27	=27	=27	=27	=27	=27	=27	=27	=27	=27	=27	=27	=27	=27	=27	=27	=27	=27	=27	=27	=27
!	!	!	!	!LO:DY:a	!	!LO:DY:a	!	!	!	!	!	!	!	!	!	!LO:TX:a:t=Solo&colon;	!	!	!	!	!	!
!	!	!	!	!	!	!LO:DY:t=p&colon;	!	!	!	!	!	!	!	!	!	!	!	!	!	!	!	!
!	!	!	!	!LO:DY:t=p&colon;	!	!	!	!	!	!	!	!	!	!	!	!	!	!	!	!	!	!
4AA/	.	.	8c#`/L	p	2cc#\	p	1r	.	.	1r	.	.	1r	.	.	2cc#\	qui-	.	1r	.	1r	.
.	.	.	8e`/	.	.	.	.	.	.	.	.	.	.	.	.	.	.	.	.	.	.	.
4r	.	.	8a`/	.	.	.	.	.	.	.	.	.	.	.	.	.	.	.	.	.	.	.
.	.	.	8e`/J	.	.	.	.	.	.	.	.	.	.	.	.	.	.	.	.	.	.	.
4A\	.	.	8c#`/L	.	(8cc#\L	.	.	.	.	.	.	.	.	.	.	8cc#\L	-a	.	.	.	.	.
.	.	.	8e`/	.	8b\	.	.	.	.	.	.	.	.	.	.	8b\J	.	.	.	.	.	.
4r	.	.	8a`/	.	8cc#\	.	.	.	.	.	.	.	.	.	.	8cc#\L	re-	.	.	.	.	.
.	.	.	8e`/J	.	8dd\J)	.	.	.	.	.	.	.	.	.	.	8dd\J	.	.	.	.	.	.
!	!	!	!LO:LB:g=original	!	!	!	!	!	!	!	!	!	!	!	!	!LO:LB:g=original	!	!	!	!	!	!
=28	=28	=28	=28	=28	=28	=28	=28	=28	=28	=28	=28	=28	=28	=28	=28	=28	=28	=28	=28	=28	=28	=28
4AA/	.	.	8c#`/L	.	2.ee\	.	1r	.	.	1r	.	.	1r	.	.	2.ee\	-spe-	.	1r	.	1r	.
.	.	.	8e`/	.	.	.	.	.	.	.	.	.	.	.	.	.	.	.	.	.	.	.
4r	.	.	8a`/	.	.	.	.	.	.	.	.	.	.	.	.	.	.	.	.	.	.	.
.	.	.	8e`/J	.	.	.	.	.	.	.	.	.	.	.	.	.	.	.	.	.	.	.
4A\	.	.	8c#`/L	.	.	.	.	.	.	.	.	.	.	.	.	.	.	.	.	.	.	.
.	.	.	8e`/	.	.	.	.	.	.	.	.	.	.	.	.	.	.	.	.	.	.	.
4r	.	.	8a`/	.	4cc#\	.	.	.	.	.	.	.	.	.	.	4cc#\	-xit	.	.	.	.	.
.	.	.	8e`/J	.	.	.	.	.	.	.	.	.	.	.	.	.	.	.	.	.	.	.
=29	=29	=29	=29	=29	=29	=29	=29	=29	=29	=29	=29	=29	=29	=29	=29	=29	=29	=29	=29	=29	=29	=29
4E\	#	.	8B`/L	.	2b\	.	1r	.	.	1r	.	.	1r	.	.	2b\	hu-	.	1r	.	1r	.
.	.	.	8e`/	.	.	.	.	.	.	.	.	.	.	.	.	.	.	.	.	.	.	.
4r	.	.	8g#X`/	.	.	.	.	.	.	.	.	.	.	.	.	.	.	.	.	.	.	.
.	.	.	8e`/J	.	.	.	.	.	.	.	.	.	.	.	.	.	.	.	.	.	.	.
4E\	.	.	8B`/L	.	8b\L	.	.	.	.	.	.	.	.	.	.	8b\L	-mi-	.	.	.	.	.
.	.	.	8e`/	.	8cc#\	.	.	.	.	.	.	.	.	.	.	8cc#\J	.	.	.	.	.	.
4r	.	.	8g#`/	.	8dd\	.	.	.	.	.	.	.	.	.	.	8dd\L	-li-	.	.	.	.	.
.	.	.	8e`/J	.	8ee\J	.	.	.	.	.	.	.	.	.	.	8ee\J	.	.	.	.	.	.
=30	=30	=30	=30	=30	=30	=30	=30	=30	=30	=30	=30	=30	=30	=30	=30	=30	=30	=30	=30	=30	=30	=30
4A\	4	.	8B`/L	.	(4.dd\	.	1r	.	.	1r	.	.	1r	.	.	2dd\	-ta-	.	1r	.	1r	.
.	.	.	8e`/	.	.	.	.	.	.	.	.	.	.	.	.	.	.	.	.	.	.	.
4r	.	.	8g#X`/	.	.	.	.	.	.	.	.	.	.	.	.	.	.	.	.	.	.	.
.	.	.	8e`/J	.	16cc#\LL	.	.	.	.	.	.	.	.	.	.	.	.	.	.	.	.	.
.	.	.	.	.	16dd\JJ)	.	.	.	.	.	.	.	.	.	.	.	.	.	.	.	.	.
4AA/	3	.	8B`/L	.	4cc#\	.	.	.	.	.	.	.	.	.	.	4cc#\	-tem	.	.	.	.	.
.	.	.	8e`/	.	.	.	.	.	.	.	.	.	.	.	.	.	.	.	.	.	.	.
4r	.	.	8g#`/	.	4r	.	.	.	.	.	.	.	.	.	.	4r	.	.	.	.	.	.
.	.	.	8e`/J	.	.	.	.	.	.	.	.	.	.	.	.	.	.	.	.	.	.	.
=31	=31	=31	=31	=31	=31	=31	=31	=31	=31	=31	=31	=31	=31	=31	=31	=31	=31	=31	=31	=31	=31	=31
4AA/	.	.	8c#`/L	.	2cc#\	.	1r	.	.	1r	.	.	1r	.	.	2cc#\	hu-	.	1r	.	1r	.
.	.	.	8e`/	.	.	.	.	.	.	.	.	.	.	.	.	.	.	.	.	.	.	.
4r	.	.	8a`/	.	.	.	.	.	.	.	.	.	.	.	.	.	.	.	.	.	.	.
.	.	.	8e`/J	.	.	.	.	.	.	.	.	.	.	.	.	.	.	.	.	.	.	.
!	!	!	!	!	!LO:LB:g=original	!	!	!	!	!	!	!	!	!	!	!	!	!	!	!	!	!
4A\	.	.	8c#`/L	.	8cc#\L	.	.	.	.	.	.	.	.	.	.	8cc#\L	-mi-	.	.	.	.	.
.	.	.	8e`/	.	8b\	.	.	.	.	.	.	.	.	.	.	8b\J	.	.	.	.	.	.
4r	.	.	8a`/	.	8cc#\	.	.	.	.	.	.	.	.	.	.	8cc#\L	-li-	.	.	.	.	.
.	.	.	8e`/J	.	8dd\J	.	.	.	.	.	.	.	.	.	.	8dd\J	.	.	.	.	.	.
=32	=32	=32	=32	=32	=32	=32	=32	=32	=32	=32	=32	=32	=32	=32	=32	=32	=32	=32	=32	=32	=32	=32
4AA/	.	.	8c#`/L	.	2.ee\	.	1r	.	.	1r	.	.	1r	.	.	2.ee\	-ta-	.	1r	.	1r	.
.	.	.	8e`/	.	.	.	.	.	.	.	.	.	.	.	.	.	.	.	.	.	.	.
4r	.	.	8a`/	.	.	.	.	.	.	.	.	.	.	.	.	.	.	.	.	.	.	.
.	.	.	8e`/J	.	.	.	.	.	.	.	.	.	.	.	.	.	.	.	.	.	.	.
!	!	!	!LO:LB:g=original	!	!	!	!	!	!	!	!	!	!	!	!	!	!	!	!	!	!	!
4A\	.	.	8c#`/L	.	.	.	.	.	.	.	.	.	.	.	.	.	.	.	.	.	.	.
.	.	.	8e`/	.	.	.	.	.	.	.	.	.	.	.	.	.	.	.	.	.	.	.
4r	.	.	8a`/	.	4cc#\	.	.	.	.	.	.	.	.	.	.	4cc#\	-tem	.	.	.	.	.
.	.	.	8e`/J	.	.	.	.	.	.	.	.	.	.	.	.	.	.	.	.	.	.	.
=33	=33	=33	=33	=33	=33	=33	=33	=33	=33	=33	=33	=33	=33	=33	=33	=33	=33	=33	=33	=33	=33	=33
4E\	#	.	8B`/L	.	2b\	.	1r	.	.	1r	.	.	1r	.	.	2b\	an-	.	1r	.	1r	.
.	.	.	8e`/	.	.	.	.	.	.	.	.	.	.	.	.	.	.	.	.	.	.	.
4r	.	.	8g#X`/	.	.	.	.	.	.	.	.	.	.	.	.	.	.	.	.	.	.	.
.	.	.	8e`/J	.	.	.	.	.	.	.	.	.	.	.	.	.	.	.	.	.	.	.
4E\	_	.	8B`/L	.	8b\L	.	.	.	.	.	.	.	.	.	.	8b\L	-cil-	.	.	.	.	.
.	.	.	8e`/	.	8cc#\	.	.	.	.	.	.	.	.	.	.	8cc#\J	.	.	.	.	.	.
4r	.	.	8g#`/	.	8dd\	.	.	.	.	.	.	.	.	.	.	8dd\L	-la	.	.	.	.	.
.	.	.	8e`/J	.	8ee\J	.	.	.	.	.	.	.	.	.	.	8ee\J	.	.	.	.	.	.
!	!	!	!	!	!	!	!	!	!	!	!	!	!	!	!	!LO:LB:g=original	!	!	!	!	!	!
=34	=34	=34	=34	=34	=34	=34	=34	=34	=34	=34	=34	=34	=34	=34	=34	=34	=34	=34	=34	=34	=34	=34
4r	.	.	8B`/L	.	(4.dd\	.	1r	.	.	1r	.	.	1r	.	.	2dd\	Su-	.	1r	.	1r	.
.	.	.	8e`/	.	.	.	.	.	.	.	.	.	.	.	.	.	.	.	.	.	.	.
4G#X\	6 5	.	8g#X`/	.	.	.	.	.	.	.	.	.	.	.	.	.	.	.	.	.	.	.
.	.	.	8e`/J	.	16cc#\LL	.	.	.	.	.	.	.	.	.	.	.	.	.	.	.	.	.
.	.	.	.	.	16dd\JJ)	.	.	.	.	.	.	.	.	.	.	.	.	.	.	.	.	.
4A\	3	.	8B`/L	.	4cc#\	.	.	.	.	.	.	.	.	.	.	4cc#\	-a	.	.	.	.	.
.	.	.	8e`/	.	.	.	.	.	.	.	.	.	.	.	.	.	.	.	.	.	.	.
4AA/	.	.	8g#`/	.	4r	.	.	.	.	.	.	.	.	.	.	4r	.	.	.	.	.	.
.	.	.	8e`/J	.	.	.	.	.	.	.	.	.	.	.	.	.	.	.	.	.	.	.
=35	=35	=35	=35	=35	=35	=35	=35	=35	=35	=35	=35	=35	=35	=35	=35	=35	=35	=35	=35	=35	=35	=35
4G#X\	6_ 5_	.	8B`/L	.	2.b\	.	1r	.	.	1r	.	.	1r	.	.	2.b\	Ec-	.	1r	.	1r	.
.	.	.	8e`/	.	.	.	.	.	.	.	.	.	.	.	.	.	.	.	.	.	.	.
4r	.	.	8g#X`/	.	.	.	.	.	.	.	.	.	.	.	.	.	.	.	.	.	.	.
.	.	.	8e`/J	.	.	.	.	.	.	.	.	.	.	.	.	.	.	.	.	.	.	.
4G#\	.	.	8B`/L	.	.	.	.	.	.	.	.	.	.	.	.	.	.	.	.	.	.	.
.	.	.	8e`/	.	.	.	.	.	.	.	.	.	.	.	.	.	.	.	.	.	.	.
4r	.	.	8g#`/	.	8ee\L	.	.	.	.	.	.	.	.	.	.	8ee\L	-ce	.	.	.	.	.
.	.	.	8e`/J	.	8dd\J	.	.	.	.	.	.	.	.	.	.	8dd\J	.	.	.	.	.	.
=36	=36	=36	=36	=36	=36	=36	=36	=36	=36	=36	=36	=36	=36	=36	=36	=36	=36	=36	=36	=36	=36	=36
4A\	.	.	8c#`/L	.	8dd\L	.	1r	.	.	1r	.	.	1r	.	.	8dd\L	e-	.	1r	.	1r	.
.	.	.	8e`/	.	8cc#\	.	.	.	.	.	.	.	.	.	.	8cc#\	.	.	.	.	.	.
4r	.	.	8a`/	.	8b\	.	.	.	.	.	.	.	.	.	.	8b\	.	.	.	.	.	.
.	.	.	8e`/J	.	8cc#\J	.	.	.	.	.	.	.	.	.	.	8cc#\J	.	.	.	.	.	.
4A\	.	.	8c#`/L	.	4a/	.	.	.	.	.	.	.	.	.	.	4a\	-num	.	.	.	.	.
.	.	.	8e`/	.	.	.	.	.	.	.	.	.	.	.	.	.	.	.	.	.	.	.
4r	.	.	8a`/	.	4a/	.	.	.	.	.	.	.	.	.	.	4a\	ex	.	.	.	.	.
.	.	.	8e`/J	.	.	.	.	.	.	.	.	.	.	.	.	.	.	.	.	.	.	.
!	!	!	!LO:LB:g=original	!	!	!	!	!	!	!	!	!	!	!	!	!	!	!	!	!	!	!
=37	=37	=37	=37	=37	=37	=37	=37	=37	=37	=37	=37	=37	=37	=37	=37	=37	=37	=37	=37	=37	=37	=37
4G#X\	6_ 5_	.	8B`/L	.	2.b\	.	1r	.	.	1r	.	.	1r	.	.	2.b\	hoc	.	1r	.	1r	.
.	.	.	8e`/	.	.	.	.	.	.	.	.	.	.	.	.	.	.	.	.	.	.	.
4r	.	.	8g#X`/	.	.	.	.	.	.	.	.	.	.	.	.	.	.	.	.	.	.	.
.	.	.	8e`/J	.	.	.	.	.	.	.	.	.	.	.	.	.	.	.	.	.	.	.
4G#\	.	.	8B`/L	.	.	.	.	.	.	.	.	.	.	.	.	.	.	.	.	.	.	.
.	.	.	8e`/	.	.	.	.	.	.	.	.	.	.	.	.	.	.	.	.	.	.	.
4r	.	.	8g#`/	.	8ee\L	.	.	.	.	.	.	.	.	.	.	8ee\L	be-	.	.	.	.	.
.	.	.	8e`/J	.	8dd\J	.	.	.	.	.	.	.	.	.	.	8dd\J	.	.	.	.	.	.
!	!	!	!	!	!LO:LB:g=original	!	!	!	!	!	!	!	!	!	!	!	!	!	!	!	!	!
=38	=38	=38	=38	=38	=38	=38	=38	=38	=38	=38	=38	=38	=38	=38	=38	=38	=38	=38	=38	=38	=38	=38
4A\	.	.	8c#`/L	.	8dd\L	.	1r	.	.	1r	.	.	1r	.	.	8dd\L	-a-	.	1r	.	1r	.
.	.	.	8e`/	.	8cc#\	.	.	.	.	.	.	.	.	.	.	8cc#\	.	.	.	.	.	.
4r	.	.	8a`/	.	8b\	.	.	.	.	.	.	.	.	.	.	8b\	.	.	.	.	.	.
.	.	.	8e`/J	.	8cc#\J	.	.	.	.	.	.	.	.	.	.	8cc#\J	.	.	.	.	.	.
4A\	.	.	8c#`/L	.	4a/	.	.	.	.	.	.	.	.	.	.	4a\	-tam	.	.	.	.	.
.	.	.	8e`/	.	.	.	.	.	.	.	.	.	.	.	.	.	.	.	.	.	.	.
4r	.	.	8a`/	.	4ee\	.	.	.	.	.	.	.	.	.	.	4ee\	Ec-	.	.	.	.	.
.	.	.	8e`/J	.	.	.	.	.	.	.	.	.	.	.	.	.	.	.	.	.	.	.
!LO:LB:g=original	!	!	!	!	!	!	!	!	!	!	!	!	!	!	!	!	!	!	!	!	!	!
=39	=39	=39	=39	=39	=39	=39	=39	=39	=39	=39	=39	=39	=39	=39	=39	=39	=39	=39	=39	=39	=39	=39
4A\	.6_ 4_	.	8d`/L	.	2ff#\	.	1r	.	.	1r	.	.	1r	.	.	2ff#\	-ce	.	1r	.	1r	.
.	.	.	8f#`/	.	.	.	.	.	.	.	.	.	.	.	.	.	.	.	.	.	.	.
4r	.	.	8a`/	.	.	.	.	.	.	.	.	.	.	.	.	.	.	.	.	.	.	.
.	.	.	8f#`/J	.	.	.	.	.	.	.	.	.	.	.	.	.	.	.	.	.	.	.
!	!	!	!	!	!	!	!	!	!	!	!	!	!	!	!	!LO:LB:g=original	!	!	!	!	!	!
4A\	.	.	8d`/L	.	4aa\	.	.	.	.	.	.	.	.	.	.	4aa\	e-	.	.	.	.	.
.	.	.	8f#`/	.	.	.	.	.	.	.	.	.	.	.	.	.	.	.	.	.	.	.
4r	.	.	8a`/	.	8gg#X\L	.	.	.	.	.	.	.	.	.	.	8gg#X\L	.	.	.	.	.	.
.	.	.	8f#`/J	.	8ff#\J	.	.	.	.	.	.	.	.	.	.	8ff#\J	.	.	.	.	.	.
=40	=40	=40	=40	=40	=40	=40	=40	=40	=40	=40	=40	=40	=40	=40	=40	=40	=40	=40	=40	=40	=40	=40
!	!	!	!LO:TX:a:t=x	!	!	!	!	!	!	!	!	!	!	!	!	!	!	!	!	!	!	!
4A\	x 3_	.	8c#`/L	.	2.ee\	.	1r	.	.	1r	.	.	1r	.	.	2.ee\	-nim	.	1r	.	1r	.
.	.	.	8e`/	.	.	.	.	.	.	.	.	.	.	.	.	.	.	.	.	.	.	.
4r	.	.	8a`/	.	.	.	.	.	.	.	.	.	.	.	.	.	.	.	.	.	.	.
.	.	.	8e`/J	.	.	.	.	.	.	.	.	.	.	.	.	.	.	.	.	.	.	.
4AA/	.	.	8c#`/L	.	.	.	.	.	.	.	.	.	.	.	.	.	.	.	.	.	.	.
.	.	.	8e`/	.	.	.	.	.	.	.	.	.	.	.	.	.	.	.	.	.	.	.
4r	.	.	8a`/	.	4cc#\	.	.	.	.	.	.	.	.	.	.	4cc#\	ex	.	.	.	.	.
.	.	.	8e`/J	.	.	.	.	.	.	.	.	.	.	.	.	.	.	.	.	.	.	.
=41	=41	=41	=41	=41	=41	=41	=41	=41	=41	=41	=41	=41	=41	=41	=41	=41	=41	=41	=41	=41	=41	=41
4D\	6_	.	(8f#/L	.	4dd\	.	1r	.	.	1r	.	.	1r	.	.	4dd\	hoc	.	1r	.	1r	.
.	.	.	8b/	.	.	.	.	.	.	.	.	.	.	.	.	.	.	.	.	.	.	.
4D\	.	.	8dd/	.	8ee\L	.	.	.	.	.	.	.	.	.	.	8ff#\L	be-	.	.	.	.	.
.	.	.	8b/J)	.	8dd\J	.	.	.	.	.	.	.	.	.	.	8dd\J	.	.	.	.	.	.
4E\	4	.	4a/	.	4cc#\	.	.	.	.	.	.	.	.	.	.	(4cc#\	-a-	.	.	.	.	.
4EE/	#	.	4g#X/	.	4b\	.	.	.	.	.	.	.	.	.	.	4b\)	.	.	.	.	.	.
!	!	!	!LO:LB:g=original	!	!	!	!	!	!	!	!	!	!	!	!	!	!	!	!	!	!	!
=42	=42	=42	=42	=42	=42	=42	=42	=42	=42	=42	=42	=42	=42	=42	=42	=42	=42	=42	=42	=42	=42	=42
!	!	!	!	!LO:DY:a	!	!LO:DY:a	!	!	!	!	!	!	!	!	!	!	!	!	!	!	!	!
!	!	!	!	!	!	!LO:DY:t=for&colon;	!	!	!	!	!	!	!	!	!	!	!	!	!	!	!	!
!	!	!	!	!LO:DY:t=f&colon;	!	!	!	!	!	!	!	!	!	!	!	!	!	!	!	!	!	!
4AA/	.	.	4a/	f	4cc#\	f	1r	.	.	1r	.	.	1r	.	.	4cc#\	-tam	.	1r	.	1r	.
4r	.	.	4a/	.	4aa\	.	.	.	.	.	.	.	.	.	.	4aa\	me-	.	.	.	.	.
2r	.	.	8a/L	.	8aa\L	.	.	.	.	.	.	.	.	.	.	8aa\L	-di-	.	.	.	.	.
.	.	.	8gn/	.	8ggn\	.	.	.	.	.	.	.	.	.	.	8ggn\J	.	.	.	.	.	.
.	.	.	8f#/	.	8ff#\	.	.	.	.	.	.	.	.	.	.	8ff#\L	-cent	.	.	.	.	.
.	.	.	8e/J	.	8ee\J	.	.	.	.	.	.	.	.	.	.	8ee\J	.	.	.	.	.	.
!	!	!	!	!	!	!	!	!	!	!LO:LB:g=original	!	!	!LO:LB:g=original	!	!	!	!	!	!	!	!	!
=43	=43	=43	=43	=43	=43	=43	=43	=43	=43	=43	=43	=43	=43	=43	=43	=43	=43	=43	=43	=43	=43	=43
!LO:TX:a:t=tutti	!	!	!	!	!	!	!	!	!	!	!	!	!	!	!	!	!	!	!	!	!	!
4r	.	.	2.d#X/	.	2.dd#X\	.	4r	.	.	4r	.	.	4r	.	.	2.dd#X\	om-	.	1r	.	1r	.
4A\	#4r_ 2_	.	.	.	.	.	4A\	om-	.	2.f#\	om-	.	2.b\	om-	.	.	.	.	.	.	.	.
8Gn\L	.	.	.	.	.	.	8Gn\L	.	.	.	.	.	.	.	.	.	.	.	.	.	.	.
8F#\	.	.	.	.	.	.	8F#\	.	.	.	.	.	.	.	.	.	.	.	.	.	.	.
8E\	.	.	8e/L	.	8ee\L	.	8E\	.	.	.	.	.	.	.	.	8ee\L	.	.	.	.	.	.
8D#X\J	.	.	8f#/J	.	8ff#\J	.	8D#X\J	.	.	.	.	.	.	.	.	8ff#\J	.	.	.	.	.	.
!	!	!	!	!	!LO:LB:g=original	!	!	!	!	!	!	!	!	!	!	!	!	!	!	!	!	!
=44	=44	=44	=44	=44	=44	=44	=44	=44	=44	=44	=44	=44	=44	=44	=44	=44	=44	=44	=44	=44	=44	=44
4E\	n	.	4g/	.	4gg\	.	4E\	-nes	.	4g\	-nes	.	4b\	-nes	.	4gg\	-nes	.	1r	.	1r	.
4r	.	.	4g/	.	4gg\	.	4r	.	.	4r	.	.	4r	.	.	4gg\	me-	.	.	.	.	.
2r	.	.	8g/L	.	8gg\L	.	2r	.	.	2r	.	.	2r	.	.	8gg\L	-di-	.	.	.	.	.
.	.	.	8f#/	.	8ff#\	.	.	.	.	.	.	.	.	.	.	8ff#\J	.	.	.	.	.	.
!	!	!	!	!	!	!	!	!	!	!	!	!	!	!	!	!LO:LB:g=original	!	!	!	!	!	!
.	.	.	8e/	.	8ee\	.	.	.	.	.	.	.	.	.	.	8ee\L	-cent	.	.	.	.	.
.	.	.	8dn/J	.	8ddn\J	.	.	.	.	.	.	.	.	.	.	8ddn\J	.	.	.	.	.	.
!LO:LB:g=original	!	!	!	!	!	!	!LO:LB:g=original	!	!	!	!	!	!	!	!	!	!	!	!	!	!	!
=45	=45	=45	=45	=45	=45	=45	=45	=45	=45	=45	=45	=45	=45	=45	=45	=45	=45	=45	=45	=45	=45	=45
*	*	*	*	*	*	*	*	*	*	*	*ij	*	*	*ij	*	*	*	*	*	*	*	*
4r	.	.	2.c#/	.	2.cc#\	.	4r	.	.	4r	.	.	4r	.	.	2.cc#\	om-	.	1r	.	1r	.
4G\	4_ 2_	.	.	.	.	.	4G\	om-	.	2.e\	om-	.	2.a\	om-	.	.	.	.	.	.	.	.
8F#\L	.	.	.	.	.	.	8F#\L	.	.	.	.	.	.	.	.	.	.	.	.	.	.	.
8E\	.	.	.	.	.	.	8E\	.	.	.	.	.	.	.	.	.	.	.	.	.	.	.
8Dn\	.	.	8d/L	.	8dd\L	.	8Dn\	.	.	.	.	.	.	.	.	8dd\L	.	.	.	.	.	.
8C#\J	.	.	8e/J	.	8ee\J	.	8C#\J	.	.	.	.	.	.	.	.	8ee\J	.	.	.	.	.	.
=46	=46	=46	=46	=46	=46	=46	=46	=46	=46	=46	=46	=46	=46	=46	=46	=46	=46	=46	=46	=46	=46	=46
4D\	.	.	4f#/	.	4ff#\	.	4D\	-nes	.	4d\	-es	.	4a\	-nes	.	4ff#\	-nes	.	1r	.	1r	.
*	*	*	*	*	*	*	*	*	*	*	*Xij	*	*	*Xij	*	*	*	*	*	*	*	*
4r	.	.	4a/	.	4ff#\	.	4r	.	.	4r	.	.	4a\	ge-	.	4ff#\	ge-	.	.	.	.	.
4r	.	.	8b/L	.	8gg\L	.	4r	.	.	4r	.	.	8b\L	.	.	8gg\L	.	.	.	.	.	.
.	.	.	8a/	.	8ff#\	.	.	.	.	.	.	.	8a\J	.	.	8ff#\J	.	.	.	.	.	.
4D\	.	.	8g/	.	8ee\	.	4D\	om-	.	4A\	ge-	.	8g\L	-ne-	.	8ee\L	-ne-	.	.	.	.	.
.	.	.	8f#/J	.	8dd\J	.	.	.	.	.	.	.	8f#\J	.	.	8dd\J	.	.	.	.	.	.
=47	=47	=47	=47	=47	=47	=47	=47	=47	=47	=47	=47	=47	=47	=47	=47	=47	=47	=47	=47	=47	=47	=47
2.A\	6_ 4_	.	4f#/	.	4dd\	.	2.A\	.	.	2.A\	.	.	4f#\	-ra-	.	4dd\	-ra-	.	1r	.	1r	.
.	.	.	8e/L	.	8cc#\L	.	.	.	.	.	.	.	8e\L	.	.	8cc#\L	.	.	.	.	.	.
.	.	.	8f#/J	.	8dd\J	.	.	.	.	.	.	.	8f#\J	.	.	8dd\J	.	.	.	.	.	.
.	.	.	[2g/	.	[<2ee\	.	.	.	.	.	.	.	[<2g\	.	.	[<2ee\	.	.	.	.	.	.
4AA/	7_ 5_	.	.	.	.	.	4AA/	-nes	.	4A\	-ne-	.	.	.	.	.	.	.	.	.	.	.
!	!	!	!LO:LB:g=original	!	!	!	!	!	!	!	!	!	!	!	!	!	!	!	!	!	!	!
=48	=48	=48	=48	=48	=48	=48	=48	=48	=48	=48	=48	=48	=48	=48	=48	=48	=48	=48	=48	=48	=48	=48
!	!	!	!	!	!	!	!	!	!	!	!	!	!	!	!	!LO:N:xstem:cue	!	!	!	!	!	!
2.D\	4 2	.	4g/]	.	4ee\]	.	2.D\	ge-	.	2.A\	-ra-	.	4g\]	.	.	4ee\]	.	.	1r	.	1r	.
.	.	.	8f#/L	.	8dd\L	.	.	.	.	.	.	.	8f#\L	.	.	8cc#\L	.	.	.	.	.	.
.	.	.	8g/J	.	8ee\J	.	.	.	.	.	.	.	8g\J	.	.	8ee\J	.	.	.	.	.	.
.	.	.	[2a/	.	[<2ff#\	.	.	.	.	.	.	.	2a\	.	.	[<2ff#\	.	.	.	.	.	.
4DD/	5_ 3_	.	.	.	.	.	4d\	-ne-	.	4A\	-ti-	.	.	.	.	.	.	.	.	.	.	.
!	!	!	!	!	!	!	!	!	!	!LO:LB:g=original	!	!	!LO:LB:g=original	!	!	!	!	!	!	!	!	!
=49	=49	=49	=49	=49	=49	=49	=49	=49	=49	=49	=49	=49	=49	=49	=49	=49	=49	=49	=49	=49	=49	=49
!	!	!	!	!	!	!	!	!	!	!	!	!	!	!	!	!LO:N:xstem:cue	!	!	!	!	!	!
!	!	!	!LO:N:xstem:cue	!	!	!	!	!	!	!	!	!	!	!	!	!	!	!	!	!	!	!
2GG/	.	.	4a/]	.	4ff#\]	.	2.G\	-ra-	.	1B	-o-	.	4a\	.	.	4ff#\]	.	.	1r	.	1r	.
.	.	.	8g/L	.	8ee\L	.	.	.	.	.	.	.	8g\L	.	.	8ee\L	.	.	.	.	.	.
.	.	.	8f#/J	.	8dd\J	.	.	.	.	.	.	.	8f#\J	.	.	8dd\J	.	.	.	.	.	.
4G\	6	.	4g/	.	4ee\	.	.	.	.	.	.	.	4g\	.	.	4ee\	.	.	.	.	.	.
4G#X\	5	.	4f#/	.	4dd\	.	4G#X\	-ti-	.	.	.	.	4f#\	-ti-	.	4dd\	-ti-	.	.	.	.	.
!	!	!	!	!	!LO:LB:g=original	!	!	!	!	!	!	!	!	!	!	!LO:LB:g=original	!	!	!	!	!	!
=50	=50	=50	=50	=50	=50	=50	=50	=50	=50	=50	=50	=50	=50	=50	=50	=50	=50	=50	=50	=50	=50	=50
4A\	4	.	4.f#/	.	(4.dd\	.	2A\	-o-	.	2A\	.	.	2f#\	-o-	.	2dd\	-o-	.	1r	.	1r	.
4AA/	.	.	.	.	.	.	.	.	.	.	.	.	.	.	.	.	.	.	.	.	.	.
.	.	.	16g/LL	.	16ee\LL	.	.	.	.	.	.	.	.	.	.	.	.	.	.	.	.	.
.	.	.	16f#/JJ	.	16dd\JJ)	.	.	.	.	.	.	.	.	.	.	.	.	.	.	.	.	.
8A\L	3	.	4e/	.	4cc#\	.	4AA/	-nes	.	4A\	-nes	.	4e\	-nes	.	4cc#\	-nes	.	.	.	.	.
8Gn`\	.	.	.	.	.	.	.	.	.	.	.	.	.	.	.	.	.	.	.	.	.	.
8F#`\	.	.	4r	.	4r	.	4r	.	.	4r	.	.	4r	.	.	4r	.	.	.	.	.	.
8E`\J	.	.	.	.	.	.	.	.	.	.	.	.	.	.	.	.	.	.	.	.	.	.
!LO:LB:g=original	!	!	!	!	!	!	!LO:LB:g=original	!	!	!	!	!	!	!	!	!	!	!	!	!	!	!
=51	=51	=51	=51	=51	=51	=51	=51	=51	=51	=51	=51	=51	=51	=51	=51	=51	=51	=51	=51	=51	=51	=51
!	!	!	!	!LO:DY:a	!	!LO:DY:a	!	!	!	!	!	!	!	!	!	!	!	!	!	!	!	!
!	!	!	!	!	!	!LO:DY:t=for&colon;	!	!	!	!	!	!	!	!	!	!	!	!	!	!	!	!
!	!	!	!	!LO:DY:t=f&colon;	!	!	!	!	!	!	!	!	!	!	!	!	!	!	!	!	!	!
8D\L	.	.	8a/L	f	2d\ 2a 2ff#	f	2D/	qui-	.	2A\	qui-	.	2f#\	qui-	.	2dd\	Qui-	.	2dd\	.	2ff#\	.
8D\	.	.	8a/	.	.	.	.	.	.	.	.	.	.	.	.	.	.	.	.	.	.	.
8D\	.	.	8a/	.	.	.	.	.	.	.	.	.	.	.	.	.	.	.	.	.	.	.
8D\J	.	.	8a/J	.	.	.	.	.	.	.	.	.	.	.	.	.	.	.	.	.	.	.
!	!	!	!	!	!LO:TX:a:t=t	!	!	!	!	!	!	!	!	!	!	!	!	!	!	!	!	!
8C#/L	6 5	.	8a/L	.	(4.gg\	.	2C#/	-a	.	2A\	-a	.	2g\	-a	.	2ee\	-a	.	2a/	.	2ee\	.
8C#/	.	.	8a/	.	.	.	.	.	.	.	.	.	.	.	.	.	.	.	.	.	.	.
8C#/	.	.	8a/	.	.	.	.	.	.	.	.	.	.	.	.	.	.	.	.	.	.	.
8C#/J	.	.	8a/J	.	16ff#\LL	.	.	.	.	.	.	.	.	.	.	.	.	.	.	.	.	.
.	.	.	.	.	16gg\JJ)	.	.	.	.	.	.	.	.	.	.	.	.	.	.	.	.	.
=52	=52	=52	=52	=52	=52	=52	=52	=52	=52	=52	=52	=52	=52	=52	=52	=52	=52	=52	=52	=52	=52	=52
8D\L	.	.	8f#/L	.	(4.aa\	.	2D\	fe-	.	2A\	fe-	.	2f#\	fe-	.	2dd\	fe-	.	2f#/	.	2dd\	.
8D\	.	.	8f#/	.	.	.	.	.	.	.	.	.	.	.	.	.	.	.	.	.	.	.
8D\	.	.	8f#/	.	.	.	.	.	.	.	.	.	.	.	.	.	.	.	.	.	.	.
8D\J	.	.	8f#/J	.	8ff#\)	.	.	.	.	.	.	.	.	.	.	.	.	.	.	.	.	.
8F#\L	6	.	8a/L	.	4dd`\	.	2F#\	-cit	.	2A\	-cit	.	2f#\	-cit	.	2dd\	-cit	.	2dd\	.	2ff#\	.
8F#\	.	.	8a/	.	.	.	.	.	.	.	.	.	.	.	.	.	.	.	.	.	.	.
8F#\	.	.	8a/	.	4dd`\	.	.	.	.	.	.	.	.	.	.	.	.	.	.	.	.	.
8F#\J	.	.	8a/J	.	.	.	.	.	.	.	.	.	.	.	.	.	.	.	.	.	.	.
=53	=53	=53	=53	=53	=53	=53	=53	=53	=53	=53	=53	=53	=53	=53	=53	=53	=53	=53	=53	=53	=53	=53
8G\L	6	.	8b\L	.	(4.ee\	.	2G\	mi-	.	2B\	mi-	.	2g\	mi-	.	2ee\	mi-	.	2ee\	.	2gg\	.
8G\	.	.	8b\	.	.	.	.	.	.	.	.	.	.	.	.	.	.	.	.	.	.	.
8G\	.	.	8b\	.	.	.	.	.	.	.	.	.	.	.	.	.	.	.	.	.	.	.
8G\J	.	.	8b\J	.	16gg\LL	.	.	.	.	.	.	.	.	.	.	.	.	.	.	.	.	.
.	.	.	.	.	16ff#\JJ)	.	.	.	.	.	.	.	.	.	.	.	.	.	.	.	.	.
8A\L	.	.	8cc#\L	.	4ee`\	.	2A\	-hi	.	2A\	-hi	.	2e\	-hi	.	2cc#\	-hi	.	2a/	.	2ee\	.
8A\	.	.	8cc#\	.	.	.	.	.	.	.	.	.	.	.	.	.	.	.	.	.	.	.
8A\	.	.	8cc#\	.	4ee`\	.	.	.	.	.	.	.	.	.	.	.	.	.	.	.	.	.
8A\J	.	.	8cc#\J	.	.	.	.	.	.	.	.	.	.	.	.	.	.	.	.	.	.	.
!	!	!	!LO:LB:g=original	!	!	!	!	!	!	!	!	!	!	!	!	!	!	!	!	!	!	!
=54	=54	=54	=54	=54	=54	=54	=54	=54	=54	=54	=54	=54	=54	=54	=54	=54	=54	=54	=54	=54	=54	=54
8D\L	.	.	8a/L	.	4ff#\	.	2D\	ma-	.	2A\	ma-	.	2f#\	ma-	.	2dd\	ma-	.	2f#/	.	2dd\	.
8D\	.	.	8a/	.	.	.	.	.	.	.	.	.	.	.	.	.	.	.	.	.	.	.
8D\	.	.	8a/	.	16ff#\LL	.	.	.	.	.	.	.	.	.	.	.	.	.	.	.	.	.
.	.	.	.	.	16ee\	.	.	.	.	.	.	.	.	.	.	.	.	.	.	.	.	.
8D\J	.	.	8a/J	.	16ff#\	.	.	.	.	.	.	.	.	.	.	.	.	.	.	.	.	.
.	.	.	.	.	16gg\JJ	.	.	.	.	.	.	.	.	.	.	.	.	.	.	.	.	.
8F#\L	6	.	8a/L	.	4aa\	.	4F#\	-gna	.	4A\	-gna	.	4f#\	-gna	.	4dd\	-gna	.	2dd\	.	2ff#\	.
8F#\	.	.	8a/	.	.	.	.	.	.	.	.	.	.	.	.	.	.	.	.	.	.	.
!	!	!	!	!	!	!	!	!	!	!	!	!	!LO:LB:g=original	!	!	!	!	!	!	!	!	!
8F#\	.	.	8a/	.	4dd\	.	4F#\	qui	.	4A\	qui	.	4f#\	qui	.	4dd\	qui	.	.	.	.	.
8F#\J	.	.	8a/J	.	.	.	.	.	.	.	.	.	.	.	.	.	.	.	.	.	.	.
=55	=55	=55	=55	=55	=55	=55	=55	=55	=55	=55	=55	=55	=55	=55	=55	=55	=55	=55	=55	=55	=55	=55
8G\L	6	.	8b\L	.	(4.ee\	.	2G\	po-	.	2B\	po-	.	2g\	po-	.	2ee\	po-	.	2ee\	.	2gg\	.
8G\	.	.	8b\	.	.	.	.	.	.	.	.	.	.	.	.	.	.	.	.	.	.	.
8G\	.	.	8b\	.	.	.	.	.	.	.	.	.	.	.	.	.	.	.	.	.	.	.
8G\J	.	.	8b\J	.	16gg\LL	.	.	.	.	.	.	.	.	.	.	.	.	.	.	.	.	.
.	.	.	.	.	16ff#\JJ)	.	.	.	.	.	.	.	.	.	.	.	.	.	.	.	.	.
!	!	!	!	!	!LO:LB:g=original	!	!	!	!	!	!	!	!	!	!	!	!	!	!	!	!	!
8A\L	.	.	8cc#\L	.	4ee\	.	2A\	-tens	.	2A\	-tens	.	2e\	-tens	.	2cc#\	-tens	.	2a/	.	2ee\	.
8A\	.	.	8cc#\	.	.	.	.	.	.	.	.	.	.	.	.	.	.	.	.	.	.	.
8A\	.	.	8cc#\	.	4ee\	.	.	.	.	.	.	.	.	.	.	.	.	.	.	.	.	.
8A\J	.	.	8cc#\J	.	.	.	.	.	.	.	.	.	.	.	.	.	.	.	.	.	.	.
!	!	!	!	!	!	!	!	!	!	!LO:LB:g=original	!	!	!	!	!	!	!	!	!	!	!	!
=56	=56	=56	=56	=56	=56	=56	=56	=56	=56	=56	=56	=56	=56	=56	=56	=56	=56	=56	=56	=56	=56	=56
4D\	.	.	4dd\	.	4d\ 4a 4ff#	.	2D\	est	.	2A\	est	.	2f#\	est	.	2dd\	est	.	2f#/	.	2dd\	.
4D\	.	.	8r	.	8r	.	.	.	.	.	.	.	.	.	.	.	.	.	.	.	.	.
.	.	.	(24a\LL	.	(24aa\LL	.	.	.	.	.	.	.	.	.	.	.	.	.	.	.	.	.
.	.	.	24b\	.	24bb\	.	.	.	.	.	.	.	.	.	.	.	.	.	.	.	.	.
.	.	.	24cc#\JJ)	.	24ccc#\JJ)	.	.	.	.	.	.	.	.	.	.	.	.	.	.	.	.	.
!	!	!	!	!	!	!	!	!	!	!	!	!	!	!	!	!LO:LB:g=original	!	!	!	!	!	!
4r	.	.	8dd\L	.	8ddd\L	.	4r	.	.	4r	.	.	4r	.	.	4r	.	.	4r	.	4r	.
.	.	.	8dd`\	.	8ddd\	.	.	.	.	.	.	.	.	.	.	.	.	.	.	.	.	.
!	!	!	!	!	!	!	!LO:SIC:s=et	!	!	!LO:SIC:s=et	!	!	!LO:SIC:s=et	!	!	!LO:SIC:s=et	!	!	!	!	!	!
4F#\	6 n5r	.	8ccn`\	.	8cccn\	.	4F#\	&	.	4d\	&	.	4a\	&	.	4ccn\	&	.	4d/	.	4dd\	.
.	.	.	8cc`\J	.	8ccc\J	.	.	.	.	.	.	.	.	.	.	.	.	.	.	.	.	.
!	!	!	!	!	!	!	!	!	!	!	!	!	!	!	!	!	!	!	!	!	!LO:LB:g=original	!
=57	=57	=57	=57	=57	=57	=57	=57	=57	=57	=57	=57	=57	=57	=57	=57	=57	=57	=57	=57	=57	=57	=57
4G\	.	.	4b\	.	4bb\	.	4G\	Sanc-	.	4d\	Sanc-	.	4g\	Sanc-	.	4b\	Sanc-	.	4d/	.	4dd\	.
4G\	.	.	8r	.	8r	.	4G\	-tum	.	4d\	-tum	.	4g\	-tum	.	4b\	-tum	.	4d/	.	4dd\	.
.	.	.	(16g/LL	.	16gg\LL	.	.	.	.	.	.	.	.	.	.	.	.	.	.	.	.	.
.	.	.	16a/JJ)	.	16aa\JJ	.	.	.	.	.	.	.	.	.	.	.	.	.	.	.	.	.
!LO:LB:g=original	!	!	!	!	!	!	!	!	!	!	!	!	!	!	!	!	!	!	!	!	!	!
!	!	!	!	!	!	!	!LO:LB:g=original	!	!	!	!	!	!	!	!	!	!	!	!	!	!	!
!	!	!	!	!	!	!	!	!	!	!	!	!	!	!	!	!	!	!	!LO:LB:g=original	!	!	!
4r	.	.	8b\L	.	8bb\L	.	4r	.	.	4r	.	.	4r	.	.	4r	.	.	4r	.	4r	.
.	.	.	8cc#X\J	.	8ccc#X\J	.	.	.	.	.	.	.	.	.	.	.	.	.	.	.	.	.
!	!	!	!LO:TX:a:t=t	!	!LO:TX:a:t=t	!	!LO:SIC:s=et	!	!	!LO:SIC:s=et	!	!	!LO:SIC:s=et	!	!	!LO:SIC:s=et	!	!	!	!	!	!
*	*	*	*	*	*	*	*	*	*	*	*ij	*	*	*ij	*	*	*ij	*	*	*	*	*
4E\	6| 3	.	(8.cc#\L	.	(8.ccc#\L	.	4E\	&	.	4A\	&	.	4g\	&	.	4cc#X\	&	.	4a/	.	4ee\	.
.	.	.	32b\LL	.	32bb\LL	.	.	.	.	.	.	.	.	.	.	.	.	.	.	.	.	.
.	.	.	32cc#\JJJ)	.	32ccc#\JJJ)	.	.	.	.	.	.	.	.	.	.	.	.	.	.	.	.	.
=58	=58	=58	=58	=58	=58	=58	=58	=58	=58	=58	=58	=58	=58	=58	=58	=58	=58	=58	=58	=58	=58	=58
4D\	.	.	4dd\	.	4ddd\	.	4D\	Sanc-	.	4A\	Sanc-	.	4f#\	Sanc-	.	4dd\	Sanc-	.	4f#/	.	4dd\	.
!	!	!	!LO:LB:g=original	!	!	!	!	!	!	!	!	!	!	!	!	!	!	!	!	!	!	!
4D\	.	.	8r	.	8r	.	4D\	-tum	.	4A\	-tum	.	4f#\	-tum	.	4dd\	-tum	.	4f#/	.	4dd\	.
.	.	.	(24a\LL	.	(24aa\LL	.	.	.	.	.	.	.	.	.	.	.	.	.	.	.	.	.
*	*	*	*	*	*	*	*	*ij	*	*	*	*	*	*	*	*	*	*	*	*	*	*
.	.	.	24b\	.	24bb\	.	.	.	.	.	.	.	.	.	.	.	.	.	.	.	.	.
.	.	.	24cc#\JJ)	.	24ccc#\JJ)	.	.	.	.	.	.	.	.	.	.	.	.	.	.	.	.	.
4r	.	.	8dd`\L	.	8ddd`\L	.	4r	.	.	4r	.	.	4r	.	.	4r	.	.	4r	.	4r	.
.	.	.	8dd`\	.	8ddd`\	.	.	.	.	.	.	.	.	.	.	.	.	.	.	.	.	.
!	!	!	!	!	!	!	!LO:SIC:s=et	!	!	!LO:SIC:s=et	!	!	!LO:SIC:s=et	!	!	!LO:SIC:s=et	!	!	!	!	!	!
4F#\	6 n5r	.	8ccn`\	.	8cccn`\	.	4F#\	&	.	4d\	&	.	4a\	&	.	4ccn\	&	.	4d/	.	4dd\	.
.	.	.	8cc`\J	.	8ccc`\J	.	.	.	.	.	.	.	.	.	.	.	.	.	.	.	.	.
=59	=59	=59	=59	=59	=59	=59	=59	=59	=59	=59	=59	=59	=59	=59	=59	=59	=59	=59	=59	=59	=59	=59
4G\	.	.	4b\	.	4bb\	.	4G\	Sanc-	.	4d\	Sanc-	.	4g\	Sanc-	.	4b\	Sanc-	.	4d/	.	4dd\	.
!	!	!	!	!	!LO:LB:g=original	!	!	!	!	!	!	!	!	!	!	!	!	!	!	!	!	!
4G\	.	.	8r	.	8r	.	4G\	-tum	.	4d\	-tum	.	4g\	-tum	.	4b\	-tum	.	4d/	.	4dd\	.
.	.	.	(16g/LL	.	16gg\LL	.	.	.	.	.	.	.	.	.	.	.	.	.	.	.	.	.
*	*	*	*	*	*	*	*	*	*	*	*	*	*	*Xij	*	*	*	*	*	*	*	*
.	.	.	16a/JJ)	.	16aa\JJ	.	.	.	.	.	.	.	.	.	.	.	.	.	.	.	.	.
4r	.	.	8b\L	.	8bb\L	.	4r	.	.	4r	.	.	4r	.	.	4r	.	.	4r	.	4r	.
.	.	.	8cc#X\J	.	8ccc#X\J	.	.	.	.	.	.	.	.	.	.	.	.	.	.	.	.	.
!	!	!	!LO:TX:a:t=t	!	!LO:TX:a:t=t	!	!LO:SIC:s=et	!	!	!LO:SIC:s=et	!	!	!LO:SIC:s=et	!	!	!LO:SIC:s=et	!	!	!	!	!	!
4E\	6| 3	.	(8.cc#\L	.	(8.ccc#\L	.	4E\	&	.	4A\	&	.	4f#\	&	.	4cc#X\	&	.	4a/	.	4ee\	.
.	.	.	32b\LL	.	32bb\LL	.	.	.	.	.	.	.	.	.	.	.	.	.	.	.	.	.
.	.	.	32cc#\JJJ)	.	32ccc#\JJJ)	.	.	.	.	.	.	.	.	.	.	.	.	.	.	.	.	.
!	!	!	!	!	!	!	!	!	!	!	!	!	!LO:LB:g=original	!	!	!	!	!	!	!	!	!
=60	=60	=60	=60	=60	=60	=60	=60	=60	=60	=60	=60	=60	=60	=60	=60	=60	=60	=60	=60	=60	=60	=60
4D\	.	.	4dd\	.	4ddd\	.	4D\	Sanc-	.	4A\	Sanc-	.	4f#\	Sanc-	.	4dd\	Sanc-	.	4f#/	.	4dd\	.
4D\	.	.	8r	.	8r	.	4D\	-tum}	.	4A\	-tum	.	4f#\	-tum	.	4dd\	-tum	.	4f#/	.	4dd\	.
.	.	.	(24a\LL	.	(24aa\LL	.	.	.	.	.	.	.	.	.	.	.	.	.	.	.	.	.
*	*	*	*	*	*	*	*	*	*	*	*Xij	*	*	*	*	*	*	*	*	*	*	*
.	.	.	24b\	.	24bb\	.	.	.	.	.	.	.	.	.	.	.	.	.	.	.	.	.
.	.	.	24cc#\JJ)	.	24ccc#\JJ)	.	.	.	.	.	.	.	.	.	.	.	.	.	.	.	.	.
4r	.	.	8dd\L	.	8ddd\L	.	4r	.	.	4r	.	.	4r	.	.	4r	.	.	4r	.	4r	.
.	.	.	8dd`\	.	8ddd\	.	.	.	.	.	.	.	.	.	.	.	.	.	.	.	.	.
!	!	!	!	!	!	!	!LO:SIC:s=et	!	!	!LO:SIC:s=et	!	!	!LO:SIC:s=et	!	!	!LO:SIC:s=et	!	!	!	!	!	!
4F#\	6 n5r	.	8ccn`\	.	8cccn\	.	4F#\	&	.	4A\	&	.	4a\	&	.	4dd\	{&	.	4d/	.	4dd\	.
.	.	.	8cc`\J	.	8ccc\J	.	.	.	.	.	.	.	.	.	.	.	.	.	.	.	.	.
!	!	!	!	!	!	!	!	!	!	!	!LO:LB:g=original	!	!	!	!	!	!	!	!	!	!	!
=61	=61	=61	=61	=61	=61	=61	=61	=61	=61	=61	=61	=61	=61	=61	=61	=61	=61	=61	=61	=61	=61	=61
!	!	!	!	!	!LO:SIC:s=8cccn	!	!	!	!	!	!	!	!	!	!	!	!	!	!	!	!	!
8G\L	.	.	8b\L	.	8ccc#\L	.	2G\	Sanc-	.	2G/	Sanc-	.	2b\	Sanc-	.	2dd\	Sanc-	.	1d	.	1dd	.
8G\	.	.	8b\	.	8bb\J	.	.	.	.	.	.	.	.	.	.	.	.	.	.	.	.	.
8G\	.	.	8b\	.	2ddd\	.	.	.	.	.	.	.	.	.	.	.	.	.	.	.	.	.
8G\J	.	.	8b\J	.	.	.	.	.	.	.	.	.	.	.	.	.	.	.	.	.	.	.
8F#\L	6	.	8a\L	.	.	.	2F#\	-tum	.	2A\	-tum	.	2a\	-tum	.	2dd\	-tum	.	.	.	.	.
*	*	*	*	*	*	*	*	*Xij	*	*	*	*	*	*	*	*	*Xij	*	*	*	*	*
8F#\	.	.	8a\	.	.	.	.	.	.	.	.	.	.	.	.	.	.	.	.	.	.	.
8F#\	.	.	8dd\	.	16ddd\LL	.	.	.	.	.	.	.	.	.	.	.	.	.	.	.	.	.
.	.	.	.	.	16ccc#\	.	.	.	.	.	.	.	.	.	.	.	.	.	.	.	.	.
!	!	!	!LO:LB:g=original	!	!	!	!	!	!	!	!	!	!	!	!	!	!	!	!	!	!	!
8F#\J	.	.	8dd\J	.	16bb\	.	.	.	.	.	.	.	.	.	.	.	.	.	.	.	.	.
.	.	.	.	.	16aa\JJ	.	.	.	.	.	.	.	.	.	.	.	.	.	.	.	.	.
!	!	!	!	!	!	!	!	!	!	!	!	!	!	!	!	!LO:LB:g=original	!	!	!	!	!	!
=62	=62	=62	=62	=62	=62	=62	=62	=62	=62	=62	=62	=62	=62	=62	=62	=62	=62	=62	=62	=62	=62	=62
8E\L	6| 3	.	8gg\L	.	8bb\L	.	2E\	no-	.	2A\	no-	.	2g\	no-	.	2cc#\	No-	.	2a/	.	2ee\	.
8E\	.	.	8gg\	.	8ccc#X\J	.	.	.	.	.	.	.	.	.	.	.	.	.	.	.	.	.
8E\	.	.	8gg\	.	4.ccc#\	.	.	.	.	.	.	.	.	.	.	.	.	.	.	.	.	.
8E\J	.	.	8gg\J	.	.	.	.	.	.	.	.	.	.	.	.	.	.	.	.	.	.	.
8D\L	.	.	8ff#\L	.	.	.	2D\	-men	.	2A\	-men	.	2f#\	-men	.	2dd\	-men	.	2dd\	.	2ff#\	.
!LO:LB:g=original	!	!	!	!	!	!	!	!	!	!	!	!	!	!	!	!	!	!	!	!	!	!
8D\	.	.	8ff#\	.	8ddd\	.	.	.	.	.	.	.	.	.	.	.	.	.	.	.	.	.
8D\	.	.	8ff#\	.	8.ddd\L	.	.	.	.	.	.	.	.	.	.	.	.	.	.	.	.	.
8D\J	.	.	8ff#\J	.	.	.	.	.	.	.	.	.	.	.	.	.	.	.	.	.	.	.
.	.	.	.	.	32ccc#\LL	.	.	.	.	.	.	.	.	.	.	.	.	.	.	.	.	.
.	.	.	.	.	32ddd\JJJ	.	.	.	.	.	.	.	.	.	.	.	.	.	.	.	.	.
*	*	*	*Xtremolo	*	*	*	*	*	*	*	*	*	*	*	*	*	*	*	*	*	*	*
*Xtremolo	*	*	*	*	*	*	*	*	*	*	*	*	*	*	*	*	*	*	*	*	*	*
!	!	!	!	!	!LO:LB:g=original	!	!LO:LB:g=original	!	!	!	!	!	!	!	!	!	!	!	!	!	!	!
!	!	!	!	!	!	!	!	!	!	!	!	!	!	!	!	!	!	!	!	!	!LO:LB:g=original	!
=63	=63	=63	=63	=63	=63	=63	=63	=63	=63	=63	=63	=63	=63	=63	=63	=63	=63	=63	=63	=63	=63	=63
8G\L	6_	.	4ee\	.	4bb\	.	2G\	e-	.	2B\	e-	.	2g\	e-	.	2ee\	E-	.	2ee\	.	2gg\	.
8G\	.	.	.	.	.	.	.	.	.	.	.	.	.	.	.	.	.	.	.	.	.	.
8G\	.	.	8gg\L	.	8bb\L	.	.	.	.	.	.	.	.	.	.	.	.	.	.	.	.	.
8G\J	.	.	16ff#\L	.	16aa\L	.	.	.	.	.	.	.	.	.	.	.	.	.	.	.	.	.
.	.	.	16ee\JJ	.	16gg\JJ	.	.	.	.	.	.	.	.	.	.	.	.	.	.	.	.	.
8A\L	4	.	4dd\	.	4ff#\	.	4A\	.	.	2A\	.	.	4f#\	.	.	4dd\	.	.	4dd\	.	4ff#\	.
!LO:TX:t=P:problem=mixed beam	!	!	!	!	!	!	!	!	!	!	!	!	!	!	!	!	!	!	!	!	!	!
8A\	.	.	.	.	.	.	.	.	.	.	.	.	.	.	.	.	.	.	.	.	.	.
8AA\	3	.	4cc#\	.	4ee\	.	4AA/	.	.	.	.	.	4e\	.	.	4cc#\	.	.	4a/	.	4ee\	.
8AA\J	.	.	.	.	.	.	.	.	.	.	.	.	.	.	.	.	.	.	.	.	.	.
!	!	!	!	!	!	!	!	!	!	!	!	!	!	!	!	!	!	!	!LO:LB:g=original	!	!	!
=64	=64	=64	=64	=64	=64	=64	=64	=64	=64	=64	=64	=64	=64	=64	=64	=64	=64	=64	=64	=64	=64	=64
4D\	.	.	4dd\	.	4ff#\	.	4D\	-jus	.	4A\	-jus	.	2f#\	-jus	.	4dd\	-jus	.	4f#/	.	4dd\	.
*	*	*	*	*	*	*	*	*ij	*	*	*ij	*	*	*	*	*	*ij	*	*	*	*	*
4BB/	.	.	4ff#\	.	2ddd\	.	(4B\	e-	.	(2B\	e-	.	.	.	.	(2dd\	E-	.	2dd\	.	4ff#\	.
4GG/	6 5	.	4.ee\	.	.	.	4G\	.	.	.	.	.	2e\	e-	.	.	.	.	.	.	2ee\	.
4AA/	.	.	.	.	4ccc#\	.	4A\)	.	.	4A\)	.	.	.	.	.	4cc#\)	.	.	4a/	.	.	.
.	.	.	16dd\LL	.	.	.	.	.	.	.	.	.	.	.	.	.	.	.	.	.	.	.
.	.	.	16ee\JJ	.	.	.	.	.	.	.	.	.	.	.	.	.	.	.	.	.	.	.
=65	=65	=65	=65	=65	=65	=65	=65	=65	=65	=65	=65	=65	=65	=65	=65	=65	=65	=65	=65	=65	=65	=65
2DD/	.	.	2d\ 2a 2ff#	.	2ddd\	.	2D\	-jus	.	2A\	-jus	.	2f#\	-jus	.	2dd\	-jus	.	2f#/	.	2dd\	.
*	*	*	*	*	*	*	*	*Xij	*	*	*Xij	*	*	*	*	*	*Xij	*	*	*	*	*
!	!	!	!	!	!	!	!LO:TX:b:t=Duo Tacet	!	!	!LO:TX:b:t=Duo Tacet	!	!	!	!	!	!LO:TX:b:t=Volti Solo	!	!	!LO:TX:b:t=Duo Tacet	!	!LO:TX:b:t=Duo Tacet	!
2r	.	.	2r	.	2r	.	2r	.	.	2r	.	.	2r	.	.	2r	.	.	2r	.	2r	.
==	==	==	==	==	==	==	==	==	==	==	==	==	==	==	==	==	==	==	==	==	==	==
*-	*-	*-	*-	*-	*-	*-	*-	*-	*-	*-	*-	*-	*-	*-	*-	*-	*-	*-	*-	*-	*-	*-
!!!system-decoration: [(s1,s2)][(s3,s4,s5,s6)][(s7,s8)][(s9)]
!!!RDF**kern: > = above
!!!RDF**kern: < = below
!!!ENC: Marta Chmielewska
!!!END: 2020-07-15
!!!ENC: Jan Barakat
!!!END: 2022-01-12
!!!YEC: Copyright 2022 Narodowy Instytut Fryderyka Chopina (https://polishscores.org)
!!!YEM: License CC-BY-4.0 (https://creativecommons.org/licenses/by/4.0)
